hlg_Resized17.cube
TITLE
LUT_3D_SIZE 5
0.025849 0.028290 0.024857
0.228794 0.000031 0.020310
0.436728 0.000000 0.038804
0.618357 0.000000 0.055802
0.730709 0.000000 0.127840
0.000000 0.269230 0.000000
0.345907 0.327657 0.000000
0.635264 0.278859 0.000000
0.868666 0.226383 0.000351
0.999969 0.116426 0.187915
0.000000 0.562951 0.000000
0.356359 0.591867 0.000000
0.643275 0.611399 0.000000
0.907881 0.594690 0.000000
1.000000 0.536339 0.133379
0.007843 0.846952 0.000000
0.390417 0.840558 0.000000
0.669261 0.855512 0.000000
0.908843 0.875471 0.000000
1.000000 0.850919 0.111879
0.000000 1.000000 0.297108
0.067414 1.000000 0.264240
0.572000 1.000000 0.248157
0.844831 1.000000 0.277424
0.999680 1.000000 0.398474
0.000076 0.013107 0.205753
0.312016 0.000000 0.281971
0.582345 0.000000 0.326879
0.813260 0.000000 0.369787
0.983581 0.000000 0.439429
0.000000 0.304753 0.306737
0.307454 0.336843 0.322606
0.639063 0.301076 0.371374
0.889342 0.230808 0.417334
1.000000 0.159762 0.492500
0.000000 0.577844 0.330144
0.120119 0.607034 0.333379
0.601389 0.616876 0.308537
0.906691 0.584848 0.391485
1.000000 0.524819 0.483925
0.000000 0.845243 0.285863
0.002991 0.844709 0.322057
0.550530 0.864713 0.335195
0.894896 0.867033 0.283589
1.000000 0.836423 0.475471
0.000000 1.000000 0.420951
0.112352 1.000000 0.409201
0.577508 1.000000 0.409751
0.821744 1.000000 0.418402
0.999649 1.000000 0.401709
0.000000 0.001785 0.460441
0.297887 0.000015 0.529839
0.646082 0.000000 0.576898
0.870024 0.000000 0.595666
1.000000 0.000000 0.642588
0.000000 0.328969 0.547204
0.248707 0.343175 0.563943
0.625406 0.328588 0.608454
0.880186 0.244739 0.637385
1.000000 0.101320 0.688441
0.000000 0.583947 0.605890
0.017105 0.601678 0.622721
0.598016 0.617884 0.618845
0.895720 0.590265 0.648188
1.000000 0.545830 0.705272
0.000000 0.809232 0.607538
0.000000 0.823789 0.634455
0.507912 0.844511 0.639216
0.856336 0.855390 0.618814
1.000000 0.803326 0.694820
0.000000 1.000000 0.588251
0.151797 1.000000 0.580774
0.513146 1.000000 0.574853
0.759793 1.000000 0.572992
0.998077 1.000000 0.607675
0.000000 0.189288 0.744045
0.290837 0.133700 0.749264
0.642985 0.051637 0.769253
0.908721 0.011841 0.820661
1.000000 0.000000 0.860227
0.000000 0.368429 0.760845
0.120882 0.367010 0.776135
0.593240 0.346792 0.804395
0.889891 0.291936 0.843183
1.000000 0.207965 0.886961
0.000000 0.609583 0.817884
0.000000 0.615427 0.833661
0.572061 0.620554 0.818998
0.881743 0.628824 0.865950
1.000000 0.558251 0.905913
0.000000 0.800580 0.842527
0.000000 0.822995 0.874113
0.446616 0.834150 0.865873
0.845731 0.842588 0.851682
1.000000 0.812360 0.871183
0.000000 1.000000 0.778454
0.000000 1.000000 0.770474
0.234302 1.000000 0.779843
0.709499 1.000000 0.791226
0.983261 0.999893 0.754101
0.000000 0.597833 1.000000
0.293614 0.590814 1.000000
0.635752 0.574014 1.000000
0.891920 0.558984 1.000000
1.000000 0.547585 1.000000
0.000000 0.603449 1.000000
0.329870 0.596078 1.000000
0.628580 0.584604 1.000000
0.884108 0.570626 1.000000
1.000000 0.568826 1.000000
0.000000 0.681926 1.000000
0.093355 0.684916 1.000000
0.557321 0.680232 1.000000
0.852689 0.658152 1.000000
1.000000 0.639750 1.000000
0.000000 0.841932 1.000000
0.000000 0.844617 1.000000
0.525826 0.842878 1.000000
0.808591 0.833539 1.000000
1.000000 0.812573 1.000000
0.000000 1.000000 1.000000
0.000000 1.000000 1.000000
0.136263 0.999893 1.000000
0.694286 0.989624 0.999680
0.969985 0.972854 0.975860
