hlg_Resized17.cube
TITLE
LUT_3D_SIZE 9
0.025849 0.028290 0.024857
0.113664 0.018646 0.024933
0.228794 0.000031 0.020310
0.341360 0.000000 0.022446
0.436728 0.000000 0.038804
0.534096 0.000000 0.053315
0.618357 0.000000 0.055802
0.649622 0.000000 0.070619
0.730709 0.000000 0.127840
0.000000 0.119997 0.010269
0.135698 0.134157 0.000046
0.314275 0.116579 0.000000
0.456840 0.074159 0.000000
0.566888 0.020020 0.000183
0.675364 0.001358 0.004746
0.787503 0.000000 0.029663
0.867887 0.000000 0.068498
0.925841 0.000000 0.165545
0.000000 0.269230 0.000000
0.058885 0.302129 0.000000
0.345907 0.327657 0.000000
0.516838 0.314260 0.000000
0.635264 0.278859 0.000000
0.750195 0.259174 0.000000
0.868666 0.226383 0.000351
0.987503 0.150210 0.041031
0.999969 0.116426 0.187915
0.000000 0.429984 0.000000
0.050706 0.445777 0.000000
0.315847 0.467048 0.000000
0.507256 0.485771 0.000000
0.648630 0.467597 0.000000
0.770626 0.454719 0.000000
0.903059 0.443565 0.000000
1.000000 0.413153 0.001495
1.000000 0.344640 0.148653
0.000000 0.562951 0.000000
0.084108 0.580621 0.000000
0.356359 0.591867 0.000000
0.519966 0.603937 0.000000
0.643275 0.611399 0.000000
0.773251 0.605203 0.000000
0.907881 0.594690 0.000000
1.000000 0.578424 0.000778
1.000000 0.536339 0.133379
0.002655 0.701457 0.000000
0.112535 0.695003 0.000000
0.377829 0.708034 0.000000
0.542336 0.717937 0.000000
0.668360 0.727749 0.000000
0.777691 0.736126 0.000000
0.907973 0.728038 0.000000
1.000000 0.714733 0.000000
1.000000 0.695613 0.119799
0.007843 0.846952 0.000000
0.146273 0.847227 0.000000
0.390417 0.840558 0.000000
0.539208 0.840589 0.000000
0.669261 0.855512 0.000000
0.789929 0.865751 0.000000
0.908843 0.875471 0.000000
0.999985 0.861830 0.000000
1.000000 0.850919 0.111879
0.000000 0.989349 0.005997
0.014145 0.990265 0.000000
0.255344 0.990768 0.000000
0.539132 0.990478 0.000000
0.659571 0.986084 0.000000
0.761013 0.986511 0.000000
0.885008 0.991089 0.002472
0.997909 0.989685 0.004257
1.000000 0.978912 0.076509
0.000000 1.000000 0.297108
0.000000 1.000000 0.282139
0.067414 1.000000 0.264240
0.362875 1.000000 0.252064
0.572000 1.000000 0.248157
0.719875 1.000000 0.261891
0.844831 1.000000 0.277424
0.955032 1.000000 0.327459
0.999680 1.000000 0.398474
0.016434 0.027970 0.083894
0.125414 0.008270 0.114153
0.270741 0.000000 0.138521
0.405280 0.000000 0.165545
0.521340 0.000000 0.183749
0.632532 0.000000 0.199878
0.755154 0.000000 0.225620
0.874693 0.000000 0.269749
0.953338 0.000000 0.341070
0.000000 0.126879 0.125216
0.122225 0.148272 0.130709
0.326390 0.117082 0.147845
0.484474 0.089708 0.187594
0.607752 0.012573 0.191821
0.714061 0.001999 0.222400
0.833799 0.000000 0.247333
0.951019 0.000000 0.293706
0.996475 0.000504 0.377615
0.000000 0.283879 0.125078
0.005112 0.320150 0.115709
0.310185 0.328603 0.081453
0.502068 0.312154 0.136538
0.645487 0.282246 0.161242
0.768368 0.246937 0.202335
0.882994 0.211994 0.240146
0.997314 0.169940 0.304189
1.000000 0.056840 0.378500
0.000000 0.443290 0.098405
0.000000 0.471122 0.082109
0.271885 0.483635 0.060380
0.485298 0.481559 0.012375
0.641672 0.467597 0.086122
0.774975 0.457420 0.169970
0.907225 0.426169 0.213901
1.000000 0.407431 0.292988
1.000000 0.351125 0.351095
0.000000 0.583490 0.056886
0.000000 0.598047 0.062730
0.157595 0.612039 0.047776
0.480873 0.619364 0.008331
0.631571 0.610254 0.000046
0.772854 0.606867 0.017639
0.921035 0.589319 0.183673
1.000000 0.572931 0.261555
1.000000 0.537362 0.343313
0.000000 0.695613 0.012497
0.004150 0.703838 0.034775
0.156649 0.722759 0.069322
0.442969 0.731975 0.006577
0.606180 0.739773 0.000000
0.769757 0.740978 0.000000
0.930983 0.735637 0.070069
1.000000 0.711620 0.228962
1.000000 0.691218 0.333776
0.006775 0.848707 0.000916
0.112505 0.845289 0.000046
0.342168 0.842390 0.040772
0.450095 0.849515 0.106462
0.626337 0.861479 0.000000
0.762448 0.870207 0.000000
0.908431 0.877241 0.000000
0.999985 0.861372 0.050095
1.000000 0.844709 0.311772
0.000000 0.990158 0.058671
0.033555 0.990890 0.049058
0.275624 0.991394 0.041352
0.540688 0.990921 0.039750
0.641367 0.986816 0.134432
0.742107 0.988357 0.089006
0.882948 0.991363 0.003647
0.997940 0.989425 0.004181
1.000000 0.974899 0.213413
0.000000 1.000000 0.337636
0.000000 1.000000 0.328344
0.085100 1.000000 0.318364
0.368170 1.000000 0.314336
0.573739 1.000000 0.318227
0.720180 1.000000 0.332677
0.840452 1.000000 0.340322
0.956069 1.000000 0.328389
0.999664 1.000000 0.400046
0.000076 0.013107 0.205753
0.110765 0.000000 0.246174
0.312016 0.000000 0.281971
0.459968 0.000000 0.306493
0.582345 0.000000 0.326879
0.695994 0.000000 0.348684
0.813260 0.000000 0.369787
0.929076 0.000000 0.401617
0.983581 0.000000 0.439429
0.000000 0.140749 0.258366
0.056153 0.144457 0.276921
0.328649 0.125841 0.316350
0.483574 0.041993 0.342229
0.619013 0.006271 0.362982
0.737133 0.000000 0.376211
0.859373 0.000000 0.394812
0.982452 0.000000 0.429770
0.999969 0.000000 0.469932
0.000000 0.304753 0.306737
0.000000 0.330251 0.325933
0.307454 0.336843 0.322606
0.510140 0.319203 0.348608
0.639063 0.301076 0.371374
0.763424 0.297612 0.408927
0.889342 0.230808 0.417334
0.996963 0.195560 0.451469
1.000000 0.159762 0.492500
0.000000 0.451728 0.330297
0.000000 0.474510 0.337667
0.230945 0.488624 0.329397
0.488533 0.499657 0.341421
0.633097 0.478187 0.345937
0.760632 0.464912 0.375860
0.908614 0.436301 0.411337
1.000000 0.395911 0.441855
1.000000 0.391348 0.505333
0.000000 0.577844 0.330144
0.000000 0.595407 0.341497
0.120119 0.607034 0.333379
0.460578 0.616205 0.344472
0.601389 0.616876 0.308537
0.761852 0.599069 0.352758
0.906691 0.584848 0.391485
1.000000 0.550698 0.434730
1.000000 0.524819 0.483925
0.000000 0.703624 0.317494
0.000000 0.714549 0.334157
0.022095 0.716793 0.354818
0.394278 0.723537 0.333150
0.604181 0.733593 0.342901
0.745769 0.730220 0.304341
0.907698 0.716594 0.361639
1.000000 0.701015 0.423178
1.000000 0.672984 0.466682
0.000000 0.845243 0.285863
0.000046 0.844282 0.302434
0.002991 0.844709 0.322057
0.290227 0.853483 0.346990
0.550530 0.864713 0.335195
0.730892 0.874403 0.300069
0.894896 0.867033 0.283589
0.999985 0.849836 0.379812
1.000000 0.836423 0.475471
0.000000 0.991089 0.277363
0.047746 0.991562 0.273182
0.286198 0.991608 0.274357
0.512245 0.991043 0.287922
0.576288 0.989960 0.341939
0.696712 0.993423 0.308354
0.853254 0.992401 0.214527
0.997345 0.991043 0.243046
1.000000 0.965316 0.433509
0.000000 1.000000 0.420951
0.000000 1.000000 0.415305
0.112352 1.000000 0.409201
0.377462 1.000000 0.406729
0.577508 1.000000 0.409751
0.715801 1.000000 0.419318
0.821744 1.000000 0.418402
0.950713 1.000000 0.357137
0.999649 1.000000 0.401709
0.000000 0.000610 0.342123
0.037476 0.000000 0.381292
0.303929 0.000000 0.425650
0.494911 0.000000 0.444266
0.623209 0.000000 0.462715
0.733364 0.000000 0.476722
0.846815 0.000000 0.488853
0.964569 0.000000 0.519509
1.000000 0.000000 0.548028
0.000000 0.136202 0.387366
0.008148 0.121111 0.399405
0.312856 0.069825 0.438361
0.487602 0.014969 0.470329
0.623941 0.000961 0.487419
0.749249 0.000000 0.498863
0.871870 0.000000 0.513787
0.994141 0.000000 0.544488
1.000000 0.001846 0.575158
0.000000 0.323598 0.441352
0.000000 0.333669 0.450584
0.277195 0.337911 0.458274
0.496086 0.328435 0.481575
0.620157 0.312078 0.503105
0.752758 0.301640 0.534478
0.882490 0.250065 0.545495
1.000000 0.183490 0.565637
1.000000 0.128969 0.597345
0.000000 0.462837 0.473350
0.000000 0.481315 0.483589
0.178393 0.496330 0.489784
0.469566 0.496025 0.486656
0.633066 0.480415 0.503044
0.761120 0.462577 0.518029
0.900694 0.474708 0.567956
1.000000 0.417716 0.574380
1.000000 0.385687 0.610300
0.000000 0.579156 0.490227
0.000000 0.592294 0.500130
0.066743 0.606760 0.507027
0.424308 0.613092 0.492256
0.604791 0.614527 0.490700
0.754879 0.603052 0.504860
0.894011 0.586969 0.529854
0.999939 0.567254 0.571862
1.000000 0.525048 0.590188
0.000000 0.688914 0.491630
0.000000 0.701122 0.502510
0.007370 0.707118 0.513481
0.372946 0.717418 0.506386
0.591775 0.725795 0.510033
0.722347 0.732448 0.487770
0.898070 0.716930 0.529122
1.000000 0.696910 0.564614
1.000000 0.640070 0.600916
0.000000 0.835142 0.463478
0.000000 0.836484 0.474693
0.000000 0.840848 0.494331
0.218906 0.840528 0.511604
0.518822 0.849760 0.494377
0.720043 0.865049 0.518791
0.876280 0.860594 0.480858
0.997879 0.836164 0.537484
1.000000 0.812375 0.602884
0.000000 0.990265 0.428153
0.023423 0.991180 0.428916
0.139651 0.992767 0.433677
0.317082 0.993271 0.458564
0.461387 0.991470 0.486107
0.637888 0.992706 0.487678
0.829313 0.988586 0.459907
0.981918 0.977615 0.465965
1.000000 0.950484 0.556527
0.000000 1.000000 0.506355
0.000000 1.000000 0.502281
0.143862 1.000000 0.498283
0.390417 1.000000 0.495796
0.570718 1.000000 0.496971
0.689265 1.000000 0.501427
0.788190 1.000000 0.491402
0.931090 1.000000 0.426123
0.999008 1.000000 0.492500
0.000000 0.001785 0.460441
0.013886 0.000580 0.487922
0.297887 0.000015 0.529839
0.481895 0.000000 0.565652
0.646082 0.000000 0.576898
0.756832 0.000000 0.587732
0.870024 0.000000 0.595666
0.988357 0.000000 0.621592
1.000000 0.000000 0.642588
0.000000 0.129946 0.507225
0.000000 0.120241 0.521920
0.285283 0.068650 0.550851
0.486702 0.013535 0.576791
0.633585 0.003189 0.594308
0.756573 0.000000 0.605325
0.883680 0.000000 0.617212
0.998688 0.000000 0.642039
1.000000 0.000000 0.667048
0.000000 0.328969 0.547204
0.000000 0.336919 0.559350
0.248707 0.343175 0.563943
0.495781 0.363485 0.594568
0.625406 0.328588 0.608454
0.750530 0.285298 0.627527
0.880186 0.244739 0.637385
1.000000 0.173495 0.661051
1.000000 0.101320 0.688441
0.000000 0.471656 0.581811
0.000000 0.481682 0.591348
0.123980 0.490517 0.590799
0.453193 0.501625 0.597848
0.622599 0.486595 0.612055
0.750835 0.475868 0.634394
0.884932 0.474968 0.663813
1.000000 0.428244 0.681331
1.000000 0.369879 0.703166
0.000000 0.583947 0.605890
0.000000 0.597559 0.617578
0.017105 0.601678 0.622721
0.405173 0.613062 0.617380
0.598016 0.617884 0.618845
0.753384 0.602991 0.629099
0.895720 0.590265 0.648188
0.998199 0.601831 0.691859
1.000000 0.545830 0.705272
0.000000 0.683970 0.620508
0.000000 0.695842 0.633829
0.000000 0.705226 0.643656
0.311589 0.717525 0.640085
0.569879 0.725261 0.632151
0.730999 0.728893 0.626703
0.898116 0.713466 0.634562
0.999680 0.703044 0.674662
1.000000 0.673442 0.707103
0.000000 0.809232 0.607538
0.000000 0.818753 0.621210
0.000000 0.823789 0.634455
0.122194 0.829221 0.636378
0.507912 0.844511 0.639216
0.707408 0.855497 0.636194
0.856336 0.855390 0.618814
0.996033 0.833921 0.658900
1.000000 0.803326 0.694820
0.000000 0.993545 0.558862
0.000000 0.994919 0.559853
0.000732 0.994263 0.573617
0.033021 0.989425 0.593347
0.363073 0.983581 0.617166
0.619394 0.981201 0.594369
0.814984 0.979202 0.606958
0.965331 0.968002 0.594705
1.000000 0.940017 0.654963
0.000000 1.000000 0.588251
0.000000 1.000000 0.584695
0.151797 1.000000 0.580774
0.348302 1.000000 0.577737
0.513146 1.000000 0.574853
0.634760 1.000000 0.576425
0.759793 1.000000 0.572992
0.904982 1.000000 0.566491
0.998077 1.000000 0.607675
0.000000 0.024201 0.582437
0.003906 0.013657 0.601434
0.322087 0.000504 0.619577
0.495415 0.000793 0.638010
0.634531 0.000000 0.665660
0.770260 0.000000 0.695308
0.889113 0.000000 0.698161
0.997147 0.000000 0.722850
1.000000 0.000000 0.739696
0.000000 0.147631 0.614282
0.000000 0.147585 0.628809
0.274540 0.120363 0.645167
0.474845 0.072557 0.665843
0.624735 0.014160 0.687465
0.763851 0.000000 0.703868
0.892927 0.001175 0.714046
0.999786 0.000351 0.739330
1.000000 0.000488 0.759960
0.000000 0.347234 0.653132
0.000000 0.352865 0.661219
0.183627 0.343145 0.661158
0.456779 0.330282 0.676295
0.624094 0.321630 0.706340
0.742336 0.289891 0.719524
0.882933 0.253117 0.730724
1.000000 0.178576 0.756207
1.000000 0.106432 0.780255
0.000000 0.491981 0.679927
0.000000 0.495430 0.691691
0.066972 0.494255 0.687495
0.428748 0.499855 0.688380
0.621073 0.518181 0.717037
0.750713 0.513848 0.735821
0.880568 0.467933 0.745724
0.999832 0.420783 0.770916
1.000000 0.378073 0.794903
0.000000 0.594446 0.712505
0.000000 0.602594 0.723354
0.006439 0.612619 0.721935
0.384482 0.611963 0.717021
0.582925 0.617945 0.716365
0.741863 0.606256 0.730037
0.885649 0.599970 0.752819
0.993561 0.590845 0.774609
1.000000 0.554376 0.805081
0.000000 0.689891 0.730724
0.000000 0.701137 0.741955
0.000000 0.710048 0.744839
0.274922 0.711162 0.744320
0.554986 0.722637 0.741970
0.734310 0.725444 0.736568
0.890593 0.713634 0.748440
0.998642 0.706676 0.772229
1.000000 0.691432 0.797650
0.000000 0.793545 0.727169
0.000000 0.808423 0.738918
0.000000 0.818143 0.749371
0.079118 0.829404 0.756527
0.501152 0.847013 0.759548
0.686625 0.850050 0.743969
0.859052 0.846738 0.733043
0.992859 0.828748 0.745113
1.000000 0.819257 0.783398
0.000000 0.988357 0.689021
0.000000 0.987366 0.697459
0.000000 0.984070 0.709163
0.005600 0.977127 0.723613
0.296223 0.966552 0.737652
0.606027 0.968338 0.714534
0.805097 0.967178 0.724788
0.946365 0.959701 0.697475
1.000000 0.930602 0.763485
0.000000 1.000000 0.674556
0.000000 1.000000 0.670893
0.000000 1.000000 0.664179
0.152987 1.000000 0.659297
0.377020 1.000000 0.659312
0.566323 1.000000 0.666331
0.728985 1.000000 0.687572
0.892653 1.000000 0.687907
0.996674 1.000000 0.699092
0.000000 0.189288 0.744045
0.000000 0.172549 0.746456
0.290837 0.133700 0.749264
0.498802 0.076768 0.755917
0.642985 0.051637 0.769253
0.766873 0.011338 0.791394
0.908721 0.011841 0.820661
0.999710 0.000565 0.838911
1.000000 0.000000 0.860227
0.000000 0.198398 0.740902
0.000000 0.192996 0.748394
0.286976 0.179980 0.756909
0.489174 0.162737 0.766018
0.630564 0.135149 0.783017
0.762448 0.056260 0.802655
0.905180 0.026062 0.830701
0.999939 0.004471 0.846708
1.000000 0.009445 0.872755
0.000000 0.368429 0.760845
0.000000 0.369741 0.766995
0.120882 0.367010 0.776135
0.426520 0.363149 0.791211
0.593240 0.346792 0.804395
0.741176 0.322683 0.819593
0.889891 0.291936 0.843183
0.999954 0.220478 0.861753
1.000000 0.207965 0.886961
0.000000 0.503090 0.791913
0.000000 0.505272 0.800687
0.065034 0.509285 0.801617
0.396170 0.505150 0.799329
0.578347 0.491585 0.805966
0.737881 0.491234 0.834211
0.873518 0.467964 0.852094
0.998322 0.416602 0.873808
1.000000 0.411719 0.898451
0.000000 0.609583 0.817884
0.000000 0.612024 0.829084
0.000000 0.615427 0.833661
0.368597 0.615961 0.820981
0.572061 0.620554 0.818998
0.745083 0.639063 0.844343
0.881743 0.628824 0.865950
0.993942 0.584894 0.875486
1.000000 0.558251 0.905913
0.000000 0.706752 0.843397
0.000000 0.716716 0.857023
0.000000 0.723964 0.861906
0.228885 0.719356 0.852247
0.540368 0.720745 0.845365
0.722972 0.726085 0.840803
0.881148 0.719127 0.859113
0.994003 0.706828 0.872114
1.000000 0.695979 0.900282
0.000000 0.800580 0.842527
0.000000 0.814343 0.861189
0.000000 0.822995 0.874113
0.007782 0.831449 0.872251
0.446616 0.834150 0.865873
0.684535 0.843992 0.859281
0.845731 0.842588 0.851682
0.991714 0.827573 0.854292
1.000000 0.812360 0.871183
0.000000 0.953185 0.840406
0.000000 0.960174 0.850385
0.000000 0.961868 0.859495
0.000000 0.958877 0.864103
0.216114 0.954437 0.861250
0.592157 0.954467 0.845777
0.778698 0.952255 0.826749
0.940078 0.942504 0.819898
1.000000 0.920745 0.831571
0.000000 1.000000 0.778454
0.000000 1.000000 0.775219
0.000000 1.000000 0.770474
0.002945 1.000000 0.768322
0.234302 1.000000 0.779843
0.503929 1.000000 0.803815
0.709499 1.000000 0.791226
0.875105 1.000000 0.780041
0.983261 0.999893 0.754101
0.000000 0.402121 0.915908
0.000229 0.394720 0.918669
0.291707 0.381216 0.921828
0.491981 0.361425 0.921035
0.637018 0.334722 0.918486
0.766903 0.296056 0.917632
0.902220 0.276661 0.940230
1.000000 0.243809 0.971542
1.000000 0.201083 0.991073
0.000000 0.404028 0.917525
0.000000 0.398062 0.919249
0.272602 0.383001 0.922240
0.487236 0.363058 0.921843
0.636347 0.335805 0.919158
0.761074 0.310445 0.924834
0.899565 0.290852 0.946990
0.999969 0.259556 0.975692
1.000000 0.212375 0.992416
0.000000 0.424750 0.917250
0.000000 0.424247 0.919066
0.202350 0.414115 0.923308
0.466133 0.402747 0.922454
0.619410 0.389761 0.925917
0.748837 0.374289 0.939727
0.892164 0.346319 0.958694
0.999832 0.303319 0.981399
1.000000 0.326940 0.994858
0.000000 0.529671 0.916548
0.000000 0.529976 0.921187
0.027848 0.526955 0.926070
0.369451 0.519417 0.933547
0.560113 0.511864 0.944274
0.713710 0.500618 0.955337
0.871153 0.479820 0.971954
0.999084 0.455924 0.988128
1.000000 0.467994 0.996887
0.000000 0.629129 0.947234
0.000000 0.628946 0.953719
0.000839 0.627146 0.959457
0.331594 0.618433 0.945495
0.532738 0.613840 0.938827
0.696345 0.606012 0.950317
0.857374 0.602167 0.970611
0.992996 0.583505 0.991333
1.000000 0.586069 0.996750
0.000000 0.716258 0.964782
0.000000 0.718364 0.971038
0.000000 0.720546 0.977707
0.274678 0.722881 0.977020
0.544884 0.722560 0.967361
0.702296 0.718395 0.954177
0.860243 0.741039 0.970825
0.993652 0.718441 0.983032
1.000000 0.699397 0.994492
0.000000 0.825177 0.969207
0.000000 0.829694 0.975479
0.000000 0.836500 0.981903
0.058885 0.830533 0.983291
0.440940 0.829038 0.977859
0.662501 0.832776 0.966537
0.828107 0.836011 0.954269
0.970504 0.827146 0.960693
1.000000 0.806531 0.970123
0.000000 0.946273 0.974640
0.000000 0.953292 0.983001
0.000000 0.954421 0.987488
0.000000 0.949325 0.988663
0.206744 0.939162 0.985260
0.565805 0.933684 0.968704
0.771145 0.934325 0.949065
0.924849 0.931395 0.932967
0.999954 0.910521 0.934783
0.000000 1.000000 0.932525
0.000000 1.000000 0.931991
0.000000 1.000000 0.929503
0.000000 1.000000 0.941009
0.079484 1.000000 0.940703
0.461616 1.000000 0.937209
0.709117 0.998947 0.918166
0.862531 0.999878 0.875837
0.980758 0.987274 0.894102
0.000000 0.597833 1.000000
0.007477 0.596460 1.000000
0.293614 0.590814 1.000000
0.492866 0.584039 1.000000
0.635752 0.574014 1.000000
0.758190 0.564797 1.000000
0.891920 0.558984 1.000000
1.000000 0.542351 1.000000
1.000000 0.547585 1.000000
0.000000 0.600778 1.000000
0.019226 0.597253 1.000000
0.313603 0.593011 1.000000
0.499001 0.584894 1.000000
0.636301 0.573968 1.000000
0.754467 0.570031 1.000000
0.889052 0.563027 1.000000
1.000000 0.546410 1.000000
1.000000 0.554040 1.000000
0.000000 0.603449 1.000000
0.032593 0.601694 1.000000
0.329870 0.596078 1.000000
0.500603 0.588479 1.000000
0.628580 0.584604 1.000000
0.748058 0.578515 1.000000
0.884108 0.570626 1.000000
0.999756 0.554192 1.000000
1.000000 0.568826 1.000000
0.000000 0.621546 1.000000
0.003799 0.620890 1.000000
0.294850 0.617807 1.000000
0.474571 0.614359 1.000000
0.611399 0.608713 1.000000
0.737163 0.599191 1.000000
0.876982 0.582330 1.000000
0.998657 0.562722 1.000000
1.000000 0.587152 1.000000
0.000000 0.681926 1.000000
0.000015 0.682567 1.000000
0.093355 0.684916 1.000000
0.379873 0.684794 1.000000
0.557321 0.680232 1.000000
0.704784 0.671122 1.000000
0.852689 0.658152 1.000000
0.994278 0.636271 1.000000
1.000000 0.639750 1.000000
0.000000 0.750805 1.000000
0.000000 0.751644 1.000000
0.031785 0.751507 1.000000
0.376730 0.749096 1.000000
0.539651 0.744213 1.000000
0.681117 0.742031 1.000000
0.827695 0.737362 1.000000
0.976654 0.727489 1.000000
1.000000 0.722637 1.000000
0.000000 0.841932 1.000000
0.000000 0.843290 1.000000
0.000000 0.844617 1.000000
0.263050 0.843366 1.000000
0.525826 0.842878 1.000000
0.669047 0.839445 1.000000
0.808591 0.833539 1.000000
0.946349 0.830014 1.000000
1.000000 0.812573 1.000000
0.000000 0.962158 1.000000
0.000000 0.961929 1.000000
0.000000 0.958434 1.000000
0.000000 0.951202 1.000000
0.330739 0.940352 1.000000
0.560235 0.929305 1.000000
0.771023 0.920913 1.000000
0.911101 0.915236 0.999359
0.999557 0.904601 0.999146
0.000000 1.000000 1.000000
0.000000 1.000000 1.000000
0.000000 1.000000 1.000000
0.000000 1.000000 1.000000
0.136263 0.999893 1.000000
0.491600 0.998077 1.000000
0.694286 0.989624 0.999680
0.863905 0.977996 0.992813
0.969985 0.972854 0.975860
