hlg_Resized17.cube
TITLE
LUT_3D_SIZE 17
0.025849 0.028290 0.024857
0.061555 0.024948 0.025544
0.113664 0.018646 0.024933
0.169009 0.007050 0.022049
0.228794 0.000031 0.020310
0.288869 0.000000 0.020310
0.341360 0.000000 0.022446
0.388861 0.000000 0.028946
0.436728 0.000000 0.038804
0.485313 0.000000 0.048447
0.534096 0.000000 0.053315
0.587152 0.000000 0.055634
0.618357 0.000000 0.055802
0.644266 0.000000 0.062180
0.649622 0.000000 0.070619
0.675410 0.000000 0.097536
0.730709 0.000000 0.127840
0.010498 0.063920 0.022095
0.058228 0.066270 0.016831
0.130053 0.059999 0.011475
0.207172 0.048066 0.005097
0.278782 0.028931 0.002518
0.342275 0.006668 0.000961
0.395941 0.000122 0.005966
0.449729 0.000000 0.010422
0.506142 0.000000 0.018067
0.559411 0.000000 0.021836
0.612055 0.000000 0.025681
0.666209 0.000000 0.034501
0.712886 0.000000 0.042374
0.742290 0.000000 0.053345
0.759793 0.000000 0.070054
0.755245 0.000000 0.096986
0.816587 0.000000 0.143526
0.000000 0.119997 0.010269
0.018250 0.134356 0.001678
0.135698 0.134157 0.000046
0.233280 0.134646 0.000000
0.314275 0.116579 0.000000
0.390890 0.097719 0.000000
0.456840 0.074159 0.000000
0.511803 0.041321 0.000000
0.566888 0.020020 0.000183
0.622629 0.002060 0.002426
0.675364 0.001358 0.004746
0.732403 0.001129 0.015305
0.787503 0.000000 0.029663
0.831754 0.000000 0.044648
0.867887 0.000000 0.068498
0.865324 0.000000 0.095796
0.925841 0.000000 0.165545
0.000000 0.192386 0.000320
0.001144 0.208667 0.000000
0.100984 0.225895 0.000000
0.242359 0.231785 0.000000
0.348257 0.231952 0.000000
0.428931 0.218952 0.000000
0.500359 0.205341 0.000000
0.561868 0.188373 0.000000
0.613703 0.166964 0.000000
0.667933 0.148577 0.000000
0.722179 0.126757 0.000076
0.779828 0.097520 0.000473
0.838132 0.071138 0.010147
0.896422 0.036866 0.027192
0.947524 0.017029 0.060304
0.963836 0.009064 0.095781
0.981109 0.010285 0.185809
0.000000 0.269230 0.000000
0.000458 0.287602 0.000000
0.058885 0.302129 0.000000
0.222782 0.318563 0.000000
0.345907 0.327657 0.000000
0.441459 0.325856 0.000000
0.516838 0.314260 0.000000
0.579904 0.295827 0.000000
0.635264 0.278859 0.000000
0.692805 0.271015 0.000000
0.750195 0.259174 0.000000
0.808927 0.244526 0.000000
0.868666 0.226383 0.000351
0.933776 0.204059 0.009613
0.987503 0.150210 0.041031
0.999893 0.090776 0.091127
0.999969 0.116426 0.187915
0.000000 0.349966 0.000000
0.000519 0.364034 0.000000
0.036469 0.377829 0.000000
0.209644 0.390143 0.000000
0.323354 0.402686 0.000000
0.434333 0.415747 0.000000
0.518578 0.409491 0.000000
0.583993 0.397894 0.000000
0.644907 0.379034 0.000000
0.705074 0.371221 0.000000
0.765148 0.366934 0.000000
0.827619 0.356954 0.000000
0.890227 0.345083 0.000000
0.956481 0.335027 0.000519
0.999237 0.311467 0.017319
1.000000 0.265309 0.078355
1.000000 0.261021 0.167514
0.000000 0.429984 0.000000
0.000000 0.435950 0.000000
0.050706 0.445777 0.000000
0.203952 0.456901 0.000000
0.315847 0.467048 0.000000
0.421729 0.476692 0.000000
0.507256 0.485771 0.000000
0.582849 0.480537 0.000000
0.648630 0.467597 0.000000
0.709728 0.460288 0.000000
0.770626 0.454719 0.000000
0.833509 0.448508 0.000000
0.903059 0.443565 0.000000
0.971374 0.436728 0.000000
1.000000 0.413153 0.001495
1.000000 0.382986 0.057145
1.000000 0.344640 0.148653
0.000000 0.501045 0.000000
0.005921 0.509071 0.000000
0.063340 0.514794 0.000000
0.231846 0.522240 0.000000
0.336095 0.530114 0.000000
0.427558 0.536889 0.000000
0.505318 0.546334 0.000000
0.576501 0.549691 0.000000
0.648539 0.545876 0.000000
0.709743 0.537255 0.000000
0.772488 0.533394 0.000000
0.837186 0.526467 0.000000
0.906111 0.523384 0.000000
0.980758 0.522103 0.000000
1.000000 0.499214 0.001755
1.000000 0.477531 0.044556
1.000000 0.446128 0.140520
0.000000 0.562951 0.000000
0.002701 0.570672 0.000000
0.084108 0.580621 0.000000
0.222019 0.586892 0.000000
0.356359 0.591867 0.000000
0.445670 0.597391 0.000000
0.519966 0.603937 0.000000
0.580926 0.610285 0.000000
0.643275 0.611399 0.000000
0.708705 0.610208 0.000000
0.773251 0.605203 0.000000
0.838422 0.596750 0.000000
0.907881 0.594690 0.000000
0.981460 0.593805 0.000000
1.000000 0.578424 0.000778
1.000000 0.558694 0.035035
1.000000 0.536339 0.133379
0.000000 0.629633 0.000000
0.000000 0.628855 0.000000
0.083467 0.635859 0.000000
0.251926 0.646113 0.000000
0.353979 0.651301 0.000000
0.462257 0.656153 0.000000
0.537026 0.659907 0.000000
0.597101 0.666026 0.000000
0.655894 0.671168 0.000000
0.712673 0.673869 0.000000
0.773983 0.672129 0.000000
0.839048 0.664652 0.000000
0.908125 0.661494 0.000000
0.982986 0.659312 0.000000
1.000000 0.648966 0.000076
1.000000 0.633158 0.024628
1.000000 0.617533 0.126497
0.002655 0.701457 0.000000
0.022721 0.698360 0.000000
0.112535 0.695003 0.000000
0.254734 0.698665 0.000000
0.377829 0.708034 0.000000
0.462837 0.714275 0.000000
0.542336 0.717937 0.000000
0.614588 0.722560 0.000000
0.668360 0.727749 0.000000
0.723552 0.731197 0.000000
0.777691 0.736126 0.000000
0.840360 0.731670 0.000000
0.907973 0.728038 0.000000
0.979492 0.724147 0.000000
1.000000 0.714733 0.000000
1.000000 0.707118 0.019058
1.000000 0.695613 0.119799
0.007721 0.778073 0.000000
0.056596 0.775387 0.000000
0.136965 0.771908 0.000000
0.279698 0.766171 0.000000
0.383139 0.764324 0.000000
0.467369 0.774350 0.000000
0.541222 0.781338 0.000000
0.615290 0.785672 0.000000
0.681193 0.789319 0.000000
0.734722 0.795209 0.000000
0.787930 0.801709 0.000000
0.841810 0.803021 0.000000
0.908354 0.800717 0.000000
0.979187 0.795819 0.000000
1.000000 0.787457 0.000000
1.000000 0.781323 0.001968
1.000000 0.779324 0.120195
0.007843 0.846952 0.000000
0.034699 0.847883 0.000000
0.146273 0.847227 0.000000
0.307408 0.843610 0.000000
0.390417 0.840558 0.000000
0.470100 0.836057 0.000000
0.539208 0.840589 0.000000
0.600473 0.850996 0.000000
0.669261 0.855512 0.000000
0.732479 0.859632 0.000000
0.789929 0.865751 0.000000
0.849378 0.872679 0.000000
0.908843 0.875471 0.000000
0.981430 0.869505 0.000000
0.999985 0.861830 0.000000
1.000000 0.855039 0.000137
1.000000 0.850919 0.111879
0.005066 0.921324 0.000000
0.019226 0.922148 0.000000
0.087449 0.922728 0.000000
0.256779 0.923247 0.000000
0.397269 0.922881 0.000000
0.483940 0.919524 0.000000
0.549157 0.916442 0.000000
0.598550 0.914534 0.000000
0.657237 0.918807 0.000000
0.720882 0.923888 0.000000
0.780118 0.929427 0.000000
0.843046 0.935882 0.000000
0.907820 0.941772 0.000000
0.969253 0.943313 0.000000
0.998917 0.935134 0.000000
1.000000 0.927306 0.000000
1.000000 0.920180 0.089296
0.000000 0.989349 0.005997
0.000000 0.989715 0.003128
0.014145 0.990265 0.000000
0.101488 0.990662 0.000000
0.255344 0.990768 0.000000
0.429053 0.990829 0.000000
0.539132 0.990478 0.000000
0.607614 0.988312 0.000000
0.659571 0.986084 0.000000
0.702983 0.984421 0.001968
0.761013 0.986511 0.000000
0.823270 0.989899 0.000000
0.885008 0.991089 0.002472
0.947448 0.990662 0.007355
0.997909 0.989685 0.004257
1.000000 0.984863 0.020295
1.000000 0.978912 0.076509
0.000000 1.000000 0.132799
0.000000 1.000000 0.117418
0.010803 1.000000 0.096635
0.049546 1.000000 0.076097
0.144732 1.000000 0.061082
0.315633 1.000000 0.054292
0.443183 1.000000 0.051179
0.550210 1.000000 0.049775
0.635065 1.000000 0.050812
0.701656 1.000000 0.055344
0.749920 1.000000 0.062852
0.806851 1.000000 0.073976
0.864408 0.999985 0.095994
0.924132 0.999939 0.128328
0.975692 1.000000 0.180331
0.997665 1.000000 0.219837
1.000000 0.999817 0.243046
0.000000 1.000000 0.297108
0.000000 1.000000 0.290028
0.000000 1.000000 0.282139
0.000000 1.000000 0.273167
0.067414 1.000000 0.264240
0.225818 1.000000 0.257115
0.362875 1.000000 0.252064
0.490425 1.000000 0.247944
0.572000 1.000000 0.248157
0.647532 1.000000 0.252750
0.719875 1.000000 0.261891
0.790982 1.000000 0.276585
0.844831 1.000000 0.277424
0.900755 1.000000 0.294392
0.955032 1.000000 0.327459
0.994720 1.000000 0.367147
0.999680 1.000000 0.398474
0.023392 0.027466 0.042634
0.058320 0.024720 0.052903
0.118547 0.015579 0.062959
0.182284 0.003571 0.059617
0.250034 0.000000 0.069947
0.314992 0.000000 0.080018
0.374914 0.000000 0.089280
0.431159 0.000000 0.098482
0.487938 0.000000 0.107927
0.543084 0.000000 0.116625
0.598016 0.000000 0.125917
0.661677 0.000000 0.139391
0.710323 0.000000 0.149218
0.761746 0.000000 0.171542
0.786419 0.000000 0.187274
0.775433 0.000000 0.197559
0.824903 0.000000 0.231174
0.006088 0.059220 0.051377
0.048020 0.065019 0.050141
0.139940 0.059587 0.055116
0.212116 0.044221 0.066957
0.287831 0.023255 0.073594
0.362631 0.001770 0.080903
0.421759 0.000183 0.081514
0.479332 0.000000 0.090288
0.537713 0.000000 0.101091
0.594522 0.000000 0.111650
0.651774 0.000000 0.125429
0.714168 0.000000 0.143709
0.762325 0.000000 0.157214
0.816709 0.000000 0.176944
0.855985 0.000000 0.193942
0.853498 0.000000 0.205173
0.894423 0.000000 0.253254
0.000000 0.122576 0.046891
0.011215 0.132052 0.038193
0.131151 0.139193 0.028641
0.224552 0.129641 0.030518
0.313649 0.116289 0.037278
0.402258 0.098085 0.045747
0.470771 0.063249 0.059525
0.539696 0.026368 0.071290
0.589212 0.009476 0.081590
0.642466 0.002167 0.104921
0.697200 0.001938 0.125063
0.758923 0.001175 0.145785
0.813153 0.000000 0.163226
0.867918 0.000000 0.175875
0.920180 0.000000 0.195071
0.935561 0.000000 0.210056
0.969451 0.000000 0.278416
0.000000 0.195972 0.025956
0.000000 0.213458 0.020234
0.080751 0.222217 0.008911
0.219104 0.228595 0.000504
0.325002 0.220493 0.004120
0.413657 0.211109 0.017456
0.493111 0.198062 0.016815
0.566888 0.180896 0.039246
0.627543 0.154147 0.045548
0.684703 0.122377 0.072251
0.741405 0.101061 0.096422
0.798474 0.074968 0.126360
0.857679 0.068055 0.152163
0.919264 0.036179 0.171511
0.975723 0.017182 0.194614
0.993927 0.016022 0.214130
0.992981 0.004105 0.295232
0.000000 0.277974 0.010117
0.000000 0.296254 0.002838
0.017304 0.314763 0.000153
0.205921 0.322911 0.000000
0.324773 0.320089 0.000000
0.426627 0.316548 0.000000
0.500328 0.302159 0.000565
0.576150 0.294621 0.004761
0.642481 0.280171 0.010880
0.704479 0.262715 0.031281
0.762356 0.250065 0.056230
0.820172 0.233341 0.094102
0.879957 0.224170 0.134813
0.945251 0.199893 0.167330
0.995300 0.150118 0.197208
1.000000 0.108675 0.221729
1.000000 0.114321 0.288960
0.000000 0.360967 0.001022
0.000000 0.376989 0.000122
0.001495 0.393698 0.000000
0.149844 0.403052 0.000000
0.313329 0.412726 0.000000
0.415671 0.399939 0.000000
0.505714 0.400320 0.000000
0.584756 0.396612 0.000000
0.648508 0.382086 0.000275
0.714519 0.378927 0.003708
0.773541 0.365728 0.024643
0.835538 0.352483 0.049256
0.895918 0.342397 0.104112
0.963668 0.331044 0.151019
0.999786 0.308309 0.190097
1.000000 0.270817 0.223011
1.000000 0.247974 0.273014
0.000000 0.436072 0.000000
0.000000 0.449287 0.000000
0.001648 0.464073 0.000000
0.083146 0.478050 0.000000
0.288014 0.486061 0.000000
0.409079 0.488624 0.000000
0.506310 0.483040 0.000000
0.589212 0.491264 0.000000
0.652857 0.478950 0.000000
0.717327 0.466728 0.000122
0.783612 0.461952 0.005600
0.846387 0.448508 0.014542
0.906844 0.436072 0.054551
0.975372 0.429313 0.125536
1.000000 0.413123 0.175647
1.000000 0.383780 0.215671
1.000000 0.345907 0.259495
0.000000 0.508873 0.000000
0.000000 0.517052 0.000015
0.000580 0.528756 0.000000
0.055955 0.540169 0.000000
0.254582 0.548928 0.000000
0.387594 0.553704 0.000000
0.492058 0.555108 0.000000
0.577630 0.555428 0.000000
0.649317 0.561730 0.000000
0.715740 0.553552 0.000000
0.783429 0.542473 0.000000
0.851896 0.533089 0.000015
0.915801 0.521141 0.015946
0.984070 0.515297 0.083833
1.000000 0.500603 0.157076
1.000000 0.475532 0.205905
1.000000 0.449180 0.254810
0.000000 0.571084 0.000000
0.000000 0.579767 0.000000
0.002289 0.589975 0.000000
0.061021 0.599115 0.000000
0.254398 0.603967 0.000000
0.384604 0.610437 0.000000
0.480446 0.615366 0.000000
0.567681 0.617639 0.000000
0.643595 0.621027 0.000000
0.711009 0.623362 0.000000
0.781369 0.614618 0.000000
0.850904 0.606470 0.000000
0.918669 0.596567 0.000000
0.989120 0.590112 0.026230
1.000000 0.579110 0.131456
1.000000 0.556100 0.195575
1.000000 0.537957 0.249439
0.000000 0.628687 0.000000
0.000000 0.633783 0.000000
0.030167 0.642420 0.000000
0.119188 0.654734 0.000000
0.263111 0.662394 0.000000
0.397436 0.666270 0.000000
0.490745 0.667918 0.000000
0.555077 0.672862 0.000000
0.625345 0.677440 0.000000
0.705043 0.681971 0.000000
0.777646 0.680262 0.000000
0.848081 0.673777 0.000000
0.916564 0.663615 0.000000
0.989380 0.655894 0.003326
1.000000 0.650629 0.095674
1.000000 0.631006 0.183474
1.000000 0.618204 0.243473
0.001892 0.698039 0.000000
0.006882 0.695872 0.000000
0.065614 0.695277 0.000000
0.183368 0.703197 0.000000
0.296361 0.716533 0.000000
0.400504 0.723461 0.000000
0.501778 0.726726 0.000000
0.578103 0.729168 0.000000
0.641169 0.731609 0.000000
0.699611 0.737881 0.000000
0.772244 0.742016 0.000000
0.846906 0.738003 0.000000
0.916747 0.728985 0.000000
0.984131 0.721096 0.000000
1.000000 0.714092 0.027451
1.000000 0.705028 0.168032
1.000000 0.695155 0.238697
0.000000 0.775113 0.000000
0.049653 0.772030 0.000000
0.139239 0.768948 0.000000
0.270191 0.765057 0.000000
0.344549 0.767239 0.000000
0.414069 0.781750 0.000244
0.498741 0.788434 0.000000
0.588159 0.791287 0.000000
0.660868 0.794659 0.000000
0.726024 0.797208 0.000000
0.776410 0.802396 0.000000
0.843305 0.805554 0.000000
0.915526 0.802915 0.000000
0.982712 0.793698 0.000000
1.000000 0.785687 0.000397
1.000000 0.778408 0.118624
1.000000 0.777752 0.233997
0.008515 0.848219 0.000000
0.026444 0.848798 0.000000
0.146288 0.847669 0.000000
0.305058 0.843519 0.000000
0.389181 0.839719 0.000000
0.452705 0.837919 0.000000
0.504356 0.845319 0.000046
0.574609 0.853758 0.000000
0.650874 0.858320 0.000000
0.720180 0.862272 0.000000
0.788327 0.866056 0.000000
0.846006 0.873289 0.000000
0.910780 0.875273 0.000000
0.982437 0.869841 0.000000
0.999985 0.860014 0.000000
1.000000 0.853071 0.038254
1.000000 0.848661 0.222583
0.007187 0.921981 0.000000
0.019089 0.923186 0.000000
0.098711 0.923583 0.000000
0.259373 0.924254 0.000000
0.401221 0.923445 0.000000
0.481010 0.920165 0.000000
0.544015 0.917250 0.000000
0.588266 0.916167 0.003037
0.643259 0.921614 0.002472
0.710353 0.926772 0.000000
0.773526 0.931609 0.000000
0.841657 0.937240 0.000000
0.907759 0.942245 0.000000
0.970550 0.942641 0.000000
0.998993 0.934813 0.000000
1.000000 0.925246 0.005478
1.000000 0.917845 0.190433
0.000000 0.989624 0.006119
0.000000 0.990158 0.002960
0.024170 0.990448 0.000000
0.105745 0.990890 0.000000
0.266606 0.991012 0.000000
0.433967 0.990890 0.000000
0.540627 0.990875 0.000000
0.606973 0.988464 0.006546
0.655695 0.986191 0.022721
0.694011 0.984970 0.037369
0.753826 0.987076 0.009369
0.819913 0.990616 0.000000
0.884962 0.991150 0.002609
0.949325 0.990555 0.007263
0.998123 0.989502 0.004166
1.000000 0.984649 0.020584
1.000000 0.977310 0.132036
0.000000 1.000000 0.136660
0.000000 1.000000 0.122591
0.014313 1.000000 0.104387
0.051804 1.000000 0.085679
0.154040 1.000000 0.073121
0.324697 1.000000 0.065690
0.448005 1.000000 0.063844
0.553033 1.000000 0.063905
0.636698 1.000000 0.068330
0.701976 1.000000 0.086290
0.748730 1.000000 0.139284
0.805341 1.000000 0.099870
0.864057 0.999985 0.098695
0.924910 0.999939 0.129076
0.976120 1.000000 0.180987
0.997803 1.000000 0.220035
1.000000 0.999817 0.243183
0.000000 1.000000 0.305089
0.000000 1.000000 0.298497
0.000000 1.000000 0.292378
0.000000 1.000000 0.285145
0.074495 1.000000 0.279637
0.230503 1.000000 0.275212
0.365759 1.000000 0.273274
0.491600 1.000000 0.273457
0.573037 1.000000 0.276005
0.648493 1.000000 0.282795
0.720180 1.000000 0.292882
0.790341 1.000000 0.308324
0.843473 1.000000 0.305913
0.901015 1.000000 0.294728
0.955917 1.000000 0.327657
0.994797 1.000000 0.367681
0.999680 1.000000 0.399084
0.016434 0.027970 0.083894
0.045624 0.022614 0.097719
0.125414 0.008270 0.114153
0.199557 0.000153 0.125368
0.270741 0.000000 0.138521
0.340627 0.000000 0.152636
0.405280 0.000000 0.165545
0.464347 0.000000 0.175616
0.521340 0.000000 0.183749
0.576364 0.000000 0.190906
0.632532 0.000000 0.199878
0.693156 0.000000 0.210559
0.755154 0.000000 0.225620
0.817731 0.000000 0.244053
0.874693 0.000000 0.269749
0.914504 0.000000 0.292424
0.953338 0.000000 0.341070
0.000656 0.061906 0.103380
0.030381 0.064607 0.112322
0.137148 0.053819 0.128298
0.216175 0.031983 0.142672
0.296925 0.012680 0.158862
0.377234 0.000855 0.167376
0.440406 0.000000 0.170352
0.501030 0.000000 0.180392
0.561944 0.000000 0.192477
0.618891 0.000000 0.201511
0.676097 0.000000 0.210605
0.737926 0.000000 0.220966
0.799786 0.000000 0.237018
0.859434 0.000000 0.254704
0.916884 0.000000 0.281849
0.954742 0.000000 0.306020
0.972442 0.000000 0.357031
0.000000 0.126879 0.125216
0.000351 0.140414 0.129412
0.122225 0.148272 0.130709
0.238560 0.135439 0.144793
0.326390 0.117082 0.147845
0.406317 0.105455 0.169192
0.484474 0.089708 0.187594
0.548287 0.026001 0.184863
0.607752 0.012573 0.191821
0.660105 0.001450 0.207279
0.714061 0.001999 0.222400
0.773953 0.000244 0.233494
0.833799 0.000000 0.247333
0.893065 0.000000 0.264454
0.951019 0.000000 0.293706
0.995758 0.000229 0.320104
0.996475 0.000504 0.377615
0.000000 0.203174 0.125490
0.000000 0.223392 0.135058
0.048798 0.233661 0.123171
0.229816 0.241306 0.124178
0.333745 0.231815 0.129992
0.416266 0.220356 0.139300
0.501274 0.216358 0.159991
0.570321 0.186481 0.165255
0.637232 0.161685 0.179370
0.696941 0.137484 0.195148
0.749599 0.104753 0.210895
0.805920 0.064088 0.225376
0.859480 0.076448 0.257633
0.916228 0.052018 0.275578
0.976272 0.030014 0.303944
1.000000 0.011322 0.327794
0.999207 0.004761 0.390448
0.000000 0.283879 0.125078
0.000000 0.303441 0.130083
0.005112 0.320150 0.115709
0.192065 0.326802 0.109178
0.310185 0.328603 0.081453
0.419547 0.321141 0.115923
0.502068 0.312154 0.136538
0.572961 0.299016 0.143648
0.645487 0.282246 0.161242
0.708995 0.262379 0.176547
0.768368 0.246937 0.202335
0.829358 0.225544 0.215656
0.882994 0.211994 0.240146
0.943252 0.196368 0.275990
0.997314 0.169940 0.304189
1.000000 0.106371 0.328145
1.000000 0.056840 0.378500
0.000000 0.366613 0.108965
0.000000 0.383261 0.112154
0.000000 0.400580 0.093172
0.130449 0.404120 0.088426
0.301869 0.413779 0.080232
0.409049 0.414557 0.040360
0.500755 0.405463 0.079942
0.573877 0.391470 0.118227
0.641871 0.384207 0.153841
0.707668 0.373571 0.165316
0.775219 0.360922 0.189563
0.839109 0.341817 0.207294
0.898711 0.326360 0.226459
0.967468 0.318578 0.264851
1.000000 0.301930 0.301289
1.000000 0.271336 0.325856
1.000000 0.218830 0.361944
0.000000 0.443290 0.098405
0.000000 0.457740 0.079271
0.000000 0.471122 0.082109
0.041596 0.478828 0.045441
0.271885 0.483635 0.060380
0.397711 0.488609 0.029938
0.485298 0.481559 0.012375
0.572076 0.478248 0.043732
0.641672 0.467597 0.086122
0.706447 0.460456 0.135241
0.774975 0.457420 0.169970
0.843641 0.440955 0.193271
0.907225 0.426169 0.213901
0.977478 0.415824 0.246036
1.000000 0.407431 0.292988
1.000000 0.384649 0.323171
1.000000 0.351125 0.351095
0.000000 0.516579 0.084550
0.000000 0.525567 0.072389
0.000000 0.537362 0.057343
0.016663 0.548592 0.060014
0.209491 0.549661 0.040070
0.392813 0.555917 0.030579
0.481361 0.555093 0.007340
0.564202 0.548608 0.007965
0.638956 0.545541 0.020646
0.705516 0.541543 0.039353
0.774212 0.532174 0.122927
0.847364 0.524575 0.171389
0.913283 0.512963 0.202106
0.983078 0.502693 0.229664
1.000000 0.495781 0.278737
1.000000 0.474281 0.314870
1.000000 0.450477 0.348043
0.000000 0.583490 0.056886
0.000000 0.592172 0.056504
0.000000 0.598047 0.062730
0.015381 0.605478 0.059632
0.157595 0.612039 0.047776
0.353918 0.615686 0.018173
0.480873 0.619364 0.008331
0.554360 0.615885 0.000000
0.631571 0.610254 0.000046
0.702281 0.610254 0.000137
0.772854 0.606867 0.017639
0.848600 0.594293 0.134615
0.921035 0.589319 0.183673
0.990234 0.581003 0.219715
1.000000 0.572931 0.261555
1.000000 0.554086 0.305074
1.000000 0.537362 0.343313
0.000000 0.636927 0.033432
0.000000 0.645685 0.038697
0.000000 0.655802 0.038239
0.018173 0.662150 0.051637
0.138888 0.665736 0.056230
0.324498 0.671290 0.018723
0.449622 0.676265 0.004959
0.548196 0.679286 0.000320
0.622843 0.679271 0.000000
0.700984 0.675975 0.000015
0.775952 0.681178 0.000000
0.849867 0.671504 0.053895
0.924590 0.659113 0.151339
0.995880 0.656321 0.210758
1.000000 0.644251 0.249393
1.000000 0.627329 0.294713
1.000000 0.615335 0.337789
0.000000 0.695613 0.012497
0.000763 0.696590 0.022858
0.004150 0.703838 0.034775
0.042710 0.714687 0.049271
0.156649 0.722759 0.069322
0.331716 0.727565 0.030930
0.442969 0.731975 0.006577
0.527077 0.735729 0.000778
0.606180 0.739773 0.000000
0.687480 0.740322 0.000000
0.769757 0.740978 0.000000
0.852522 0.747494 0.000000
0.930983 0.735637 0.070069
0.988952 0.722942 0.160647
1.000000 0.711620 0.228962
1.000000 0.701259 0.282704
1.000000 0.691218 0.333776
0.000000 0.770733 0.003662
0.021195 0.768719 0.005722
0.077272 0.767590 0.015518
0.121004 0.769543 0.030549
0.217868 0.775326 0.052674
0.320974 0.787243 0.089601
0.450797 0.792493 0.025330
0.556664 0.795575 0.000366
0.626078 0.798962 0.000000
0.680690 0.803784 0.000000
0.758404 0.806958 0.000000
0.843442 0.808270 0.000000
0.921920 0.806424 0.000015
0.990127 0.797131 0.081056
1.000000 0.781872 0.172564
1.000000 0.774792 0.253361
1.000000 0.773617 0.328145
0.006775 0.848707 0.000916
0.016846 0.847883 0.000687
0.112505 0.845289 0.000046
0.273838 0.842252 0.019776
0.342168 0.842390 0.040772
0.389151 0.841962 0.073777
0.450095 0.849515 0.106462
0.532326 0.857557 0.063645
0.626337 0.861479 0.000000
0.703548 0.865568 0.000000
0.762448 0.870207 0.000000
0.832288 0.875486 0.000000
0.908431 0.877241 0.000000
0.986053 0.876554 0.001373
0.999985 0.861372 0.050095
1.000000 0.849332 0.198123
1.000000 0.844709 0.311772
0.007568 0.923461 0.000031
0.016449 0.924147 0.000015
0.103197 0.925124 0.000275
0.251850 0.925338 0.004959
0.398093 0.924041 0.010727
0.472282 0.920577 0.035523
0.523751 0.919203 0.067170
0.557046 0.919707 0.111025
0.608896 0.925765 0.108370
0.684413 0.930861 0.032197
0.756313 0.935424 0.000122
0.833341 0.939361 0.000000
0.902556 0.944945 0.000000
0.969497 0.946273 0.000000
0.998856 0.936812 0.000000
1.000000 0.923018 0.115145
1.000000 0.914031 0.275929
0.000000 0.990158 0.058671
0.000000 0.990570 0.053788
0.033555 0.990890 0.049058
0.111101 0.991073 0.043763
0.275624 0.991394 0.041352
0.434821 0.991211 0.039033
0.540688 0.990921 0.039750
0.600366 0.988495 0.072358
0.641367 0.986816 0.134432
0.676585 0.986175 0.172961
0.742107 0.988357 0.089006
0.812222 0.991943 0.009491
0.882948 0.991363 0.003647
0.948135 0.991012 0.007721
0.997940 0.989425 0.004181
1.000000 0.983993 0.034745
1.000000 0.974899 0.213413
0.000000 1.000000 0.195331
0.000000 1.000000 0.186862
0.017777 1.000000 0.178225
0.051972 1.000000 0.169802
0.163714 1.000000 0.164126
0.325628 1.000000 0.160647
0.450675 1.000000 0.163043
0.553491 1.000000 0.167865
0.636591 1.000000 0.175067
0.700755 1.000000 0.193545
0.741711 1.000000 0.225605
0.797971 1.000000 0.199329
0.860807 0.999985 0.131151
0.924269 0.999954 0.130510
0.976745 1.000000 0.181704
0.997955 1.000000 0.220233
1.000000 0.999817 0.246220
0.000000 1.000000 0.337636
0.000000 1.000000 0.332662
0.000000 1.000000 0.328344
0.000000 1.000000 0.323049
0.085100 1.000000 0.318364
0.236240 1.000000 0.315419
0.368170 1.000000 0.314336
0.491524 1.000000 0.315022
0.573739 1.000000 0.318227
0.648966 1.000000 0.323857
0.720180 1.000000 0.332677
0.789166 1.000000 0.345693
0.840452 1.000000 0.340322
0.899596 1.000000 0.308522
0.956069 1.000000 0.328389
0.994888 1.000000 0.368277
0.999664 1.000000 0.400046
0.003937 0.024552 0.137087
0.032181 0.016464 0.157443
0.123461 0.001511 0.183001
0.211597 0.000000 0.199542
0.288914 0.000000 0.213535
0.364752 0.000000 0.225391
0.434287 0.000000 0.237522
0.497246 0.000000 0.247974
0.555779 0.000000 0.257511
0.612711 0.000000 0.266651
0.669871 0.000000 0.277760
0.728435 0.000000 0.289311
0.789319 0.000000 0.302937
0.844022 0.000000 0.315877
0.906600 0.000000 0.336507
0.956634 0.000000 0.361807
0.976867 0.000000 0.386175
0.000000 0.059495 0.164874
0.012375 0.058869 0.170977
0.130068 0.047120 0.196918
0.223606 0.013413 0.215732
