user01.cube
TITLE 
LUT_3D_SIZE 5
0.024857 0.028290 0.025849
0.021103 0.004562 0.182788
0.025422 0.000000 0.365515
0.052155 0.000000 0.521126
0.062181 0.000000 0.644266
0.024796 0.031769 0.024002
0.019074 0.005585 0.193759
0.024689 0.000000 0.373327
0.048783 0.000000 0.535592
0.060655 0.000000 0.662577
0.024521 0.037369 0.021363
0.015808 0.010376 0.204089
0.023468 0.000000 0.387655
0.043564 0.000000 0.553704
0.058549 0.000000 0.684825
0.023896 0.048249 0.017410
0.009430 0.023331 0.215671
0.016983 0.000000 0.404578
0.034745 0.000000 0.576150
0.056367 0.000000 0.712474
0.022095 0.063920 0.010498
0.004273 0.043046 0.225437
0.008240 0.000031 0.421180
0.024781 0.000000 0.597742
0.053346 0.000000 0.742290
0.019654 0.077714 0.004395
0.001587 0.062821 0.232822
0.002670 0.001694 0.437980
0.017624 0.000000 0.615015
0.051041 0.000000 0.767361
0.017823 0.088518 0.001678
0.000183 0.083391 0.239521
0.000137 0.008545 0.453834
0.011414 0.000000 0.630915
0.049851 0.000000 0.789715
0.014267 0.103563 0.000000
0.000000 0.105364 0.246357
0.000000 0.024048 0.470329
0.007156 0.000000 0.646448
0.046967 0.000000 0.809888
0.010269 0.119997 0.000000
0.000000 0.129702 0.252659
0.000000 0.056657 0.485069
0.003464 0.002838 0.662242
0.044648 0.000000 0.831754
0.006165 0.137240 0.000000
0.000000 0.158251 0.262165
0.000000 0.094148 0.499092
0.001297 0.007965 0.676127
0.042084 0.000702 0.852674
0.002548 0.155703 0.000000
0.000000 0.187076 0.272053
0.000000 0.130159 0.511574
0.000580 0.048066 0.688594
0.037812 0.003281 0.868742
0.001358 0.174365 0.000000
0.000000 0.212543 0.275288
0.000000 0.164813 0.522438
0.000153 0.091585 0.699916
0.032929 0.005249 0.885039
0.000320 0.192386 0.000000
0.000000 0.234272 0.271321
0.000000 0.195758 0.530709
0.000031 0.132769 0.708629
0.027192 0.036866 0.896422
0.000061 0.210468 0.000000
0.000000 0.256886 0.268971
0.000000 0.223850 0.536828
0.000000 0.168551 0.716594
0.021790 0.073182 0.907073
0.000000 0.228840 0.000000
0.000000 0.278737 0.264546
0.000000 0.251011 0.540795
0.000000 0.199863 0.723430
0.016297 0.109468 0.917128
0.000000 0.248386 0.000000
0.000000 0.300511 0.258854
0.000000 0.278370 0.544610
0.000000 0.231449 0.730190
0.013047 0.155138 0.925307
0.000000 0.269230 0.000000
0.000000 0.321324 0.252171
0.000000 0.307073 0.547402
0.000000 0.262669 0.736095
0.009613 0.204059 0.933776
0.000000 0.289754 0.000000
0.000000 0.340185 0.247379
0.000000 0.334188 0.549584
0.000000 0.291936 0.741115
0.006256 0.241108 0.940307
0.000000 0.310124 0.000000
0.000000 0.356985 0.242451
0.000000 0.359197 0.551171
0.000000 0.318364 0.744686
0.002853 0.274495 0.946334
0.000000 0.330236 0.000000
0.000000 0.374090 0.238239
0.000000 0.382773 0.552514
0.000000 0.343755 0.747555
0.000443 0.306538 0.951995
0.000000 0.349966 0.000000
0.000000 0.392035 0.237156
0.000000 0.404730 0.553460
0.000000 0.367803 0.749676
0.000519 0.335027 0.956481
0.000000 0.369192 0.000000
0.000000 0.410300 0.232746
0.000000 0.424887 0.554086
0.000000 0.390768 0.752148
0.000397 0.362860 0.960998
0.000000 0.389197 0.000000
0.000000 0.426947 0.236713
0.000000 0.445457 0.554070
0.000000 0.412848 0.753170
0.000229 0.387518 0.964553
0.000000 0.410071 0.000000
0.000000 0.442924 0.240772
0.000000 0.465721 0.552636
0.000000 0.435157 0.754543
0.000107 0.412268 0.968032
0.000000 0.429984 0.000000
0.000000 0.458686 0.238712
0.000000 0.484398 0.548318
0.000000 0.456138 0.755169
0.000000 0.436728 0.971374
