user01.cube
TITLE 
LUT_3D_SIZE 17
0.024857 0.028290 0.025849
0.023918 0.022358 0.065084
0.022980 0.016426 0.104318
0.022042 0.010494 0.143553
0.021103 0.004562 0.182788
0.022183 0.003422 0.228470
0.023262 0.002281 0.274152
0.024342 0.001141 0.319833
0.025422 0.000000 0.365515
0.032105 0.000000 0.404418
0.038788 0.000000 0.443320
0.045472 0.000000 0.482223
0.052155 0.000000 0.521126
0.054662 0.000000 0.551911
0.057168 0.000000 0.582696
0.059674 0.000000 0.613481
0.062181 0.000000 0.644266
0.024842 0.029160 0.025387
0.023411 0.022614 0.067826
0.022473 0.016682 0.107061
0.021534 0.010750 0.146296
0.020596 0.004818 0.185531
0.022000 0.003422 0.230423
0.023079 0.002281 0.276105
0.024159 0.001141 0.321786
0.025238 0.000000 0.367468
0.031262 0.000000 0.408034
0.037945 0.000000 0.446937
0.044629 0.000000 0.485840
0.051312 0.000000 0.524742
0.054280 0.000000 0.556489
0.056786 0.000000 0.587274
0.059293 0.000000 0.618059
0.061799 0.000000 0.648844
0.024826 0.030030 0.024926
0.023396 0.023484 0.067365
0.021965 0.016937 0.109804
0.021027 0.011006 0.149039
0.020088 0.005074 0.188273
0.021492 0.003677 0.233166
0.022896 0.002281 0.278057
0.023976 0.001141 0.323739
0.025055 0.000000 0.369421
0.031079 0.000000 0.409987
0.037102 0.000000 0.450554
0.043786 0.000000 0.489456
0.050469 0.000000 0.528359
0.053437 0.000000 0.560105
0.056405 0.000000 0.591851
0.058911 0.000000 0.622636
0.061418 0.000000 0.653422
0.024811 0.030900 0.024464
0.023381 0.024353 0.066903
0.021950 0.017807 0.109342
0.020520 0.011261 0.151781
0.019581 0.005329 0.191016
0.020985 0.003933 0.235908
0.022389 0.002537 0.280800
0.023793 0.001141 0.325692
0.024872 0.000000 0.371374
0.030896 0.000000 0.411940
0.036919 0.000000 0.452507
0.042943 0.000000 0.493073
0.049626 0.000000 0.531976
0.052594 0.000000 0.563722
0.055562 0.000000 0.595468
0.058530 0.000000 0.627214
0.061036 0.000000 0.657999
0.024796 0.031769 0.024002
0.023365 0.025223 0.066442
0.021935 0.018677 0.108881
0.020504 0.012131 0.151320
0.019074 0.005585 0.193759
0.020478 0.004189 0.238651
0.021881 0.002792 0.283543
0.023285 0.001396 0.328435
0.024689 0.000000 0.373327
0.030713 0.000000 0.413893
0.036736 0.000000 0.454459
0.042760 0.000000 0.495026
0.048783 0.000000 0.535592
0.051751 0.000000 0.567338
0.054719 0.000000 0.599084
0.057687 0.000000 0.630831
0.060655 0.000000 0.662577
0.024727 0.033169 0.023342
0.022549 0.026421 0.069024
0.021118 0.019875 0.111463
0.019688 0.013329 0.153902
0.018257 0.006783 0.196341
0.020172 0.004189 0.242233
0.021576 0.002792 0.287125
0.022980 0.001396 0.332017
0.024384 0.000000 0.376909
0.029408 0.000000 0.418421
0.035431 0.000000 0.458988
0.041455 0.000000 0.499554
0.047478 0.000000 0.540120
0.051225 0.000000 0.572900
0.054192 0.000000 0.604647
0.057160 0.000000 0.636393
0.060128 0.000000 0.668139
0.024659 0.034569 0.022682
0.022480 0.027821 0.068364
0.020302 0.021073 0.114046
0.018872 0.014527 0.156485
0.017441 0.007980 0.198924
0.019356 0.005386 0.244815
0.021271 0.002792 0.290707
0.022675 0.001396 0.335599
0.024079 0.000000 0.380491
0.029103 0.000000 0.422003
0.034127 0.000000 0.463516
0.040150 0.000000 0.504082
0.046174 0.000000 0.544648
0.049920 0.000000 0.577428
0.053666 0.000000 0.610209
0.056634 0.000000 0.641955
0.059602 0.000000 0.673701
0.024590 0.035969 0.022023
0.022412 0.029221 0.067704
0.020233 0.022473 0.113386
0.018055 0.015724 0.159067
0.016625 0.009178 0.201506
0.018540 0.006584 0.247398
0.020455 0.003990 0.293289
0.022370 0.001396 0.339181
0.023774 0.000000 0.384073
0.028798 0.000000 0.425585
0.033822 0.000000 0.467098
0.038846 0.000000 0.508610
0.044869 0.000000 0.549176
0.048615 0.000000 0.581956
0.052361 0.000000 0.614736
0.056107 0.000000 0.647517
0.059075 0.000000 0.679263
0.024521 0.037369 0.021363
0.022343 0.030621 0.067044
0.020165 0.023873 0.112726
0.017987 0.017124 0.158407
0.015808 0.010376 0.204089
0.017723 0.007782 0.249980
0.019638 0.005188 0.295872
0.021553 0.002594 0.341763
0.023468 0.000000 0.387655
0.028492 0.000000 0.429167
0.033516 0.000000 0.470680
0.038540 0.000000 0.512192
0.043564 0.000000 0.553704
0.047311 0.000000 0.586484
0.051057 0.000000 0.619264
0.054803 0.000000 0.652045
0.058549 0.000000 0.684825
0.024365 0.040089 0.020375
0.020748 0.033860 0.069940
0.018570 0.027111 0.115621
0.016392 0.020363 0.161303
0.014214 0.013615 0.206985
0.016102 0.007782 0.254211
0.018017 0.005188 0.300103
0.019932 0.002594 0.345994
0.021847 0.000000 0.391886
0.026287 0.000000 0.434779
0.031312 0.000000 0.476291
0.036336 0.000000 0.517803
0.041360 0.000000 0.559316
0.046765 0.000000 0.593397
0.050511 0.000000 0.626177
0.054257 0.000000 0.658957
0.058003 0.000000 0.691737
0.024208 0.042809 0.019387
0.020592 0.036580 0.068952
0.016976 0.030350 0.118517
0.014797 0.023602 0.164198
0.012619 0.016854 0.209880
0.014507 0.011021 0.257107
0.016396 0.005188 0.304334
0.018311 0.002594 0.350225
0.020226 0.000000 0.396116
0.024666 0.000000 0.439009
0.029107 0.000000 0.481902
0.034131 0.000000 0.523415
0.039155 0.000000 0.564927
0.044560 0.000000 0.599008
0.049966 0.000000 0.633089
0.053712 0.000000 0.665869
0.057458 0.000000 0.698650
0.024052 0.045529 0.018399
0.020436 0.039300 0.067964
0.016819 0.033070 0.117529
0.013203 0.026841 0.167094
0.011025 0.020092 0.212775
0.012913 0.014260 0.260002
0.014801 0.008427 0.307229
0.016690 0.002594 0.354456
0.018605 0.000000 0.400347
0.023045 0.000000 0.443240
0.027485 0.000000 0.486133
0.031926 0.000000 0.529026
0.036950 0.000000 0.570539
0.042355 0.000000 0.604620
0.047761 0.000000 0.638700
0.053166 0.000000 0.672781
0.056912 0.000000 0.705562
0.023896 0.048249 0.017410
0.020279 0.042019 0.066976
0.016663 0.035790 0.116541
0.013046 0.029560 0.166106
0.009430 0.023331 0.215671
0.011318 0.017498 0.262898
0.013207 0.011665 0.310125
0.015095 0.005833 0.357351
0.016983 0.000000 0.404578
0.021424 0.000000 0.447471
0.025864 0.000000 0.490364
0.030304 0.000000 0.533257
0.034745 0.000000 0.576150
0.040150 0.000000 0.610231
0.045556 0.000000 0.644312
0.050961 0.000000 0.678393
0.056367 0.000000 0.712474
0.023445 0.052167 0.015682
0.018990 0.046948 0.069417
0.015373 0.040719 0.118982
0.011757 0.034489 0.168547
0.008141 0.028260 0.218112
0.009133 0.017506 0.267048
0.011021 0.011673 0.314275
0.012909 0.005840 0.361502
0.014797 0.000008 0.408729
0.018933 0.000000 0.452869
0.023373 0.000000 0.495762
0.027813 0.000000 0.538655
0.032254 0.000000 0.581548
0.039395 0.000000 0.617685
0.044800 0.000000 0.651766
0.050206 0.000000 0.685847
0.055611 0.000000 0.719928
0.022995 0.056084 0.013954
0.018540 0.050866 0.067689
0.014084 0.045647 0.121424
0.010468 0.039418 0.170989
0.006851 0.033188 0.220554
0.007843 0.022435 0.269490
0.008835 0.011681 0.318426
0.010723 0.005848 0.365652
0.012612 0.000015 0.412879
0.016747 0.000008 0.457020
0.020882 0.000000 0.501160
0.025322 0.000000 0.544053
0.029763 0.000000 0.586946
0.036904 0.000000 0.623083
0.044045 0.000000 0.659220
0.049451 0.000000 0.693301
0.054856 0.000000 0.727382
0.022545 0.060002 0.012226
0.018090 0.054784 0.065961
0.013634 0.049565 0.119696
0.009178 0.044347 0.173430
0.005562 0.038117 0.222996
0.006554 0.027363 0.271931
0.007546 0.016609 0.320867
0.008537 0.005856 0.369803
0.010426 0.000023 0.417030
0.014561 0.000015 0.461170
0.018696 0.000008 0.505311
0.022831 0.000000 0.549451
0.027272 0.000000 0.592344
0.034413 0.000000 0.628481
0.041554 0.000000 0.664618
0.048695 0.000000 0.700755
0.054101 0.000000 0.734836
0.022095 0.063920 0.010498
0.017639 0.058701 0.064233
0.013184 0.053483 0.117968
0.008728 0.048264 0.171702
0.004273 0.043046 0.225437
0.005264 0.032292 0.274373
0.006256 0.021538 0.323308
0.007248 0.010784 0.372244
0.008240 0.000031 0.421180
0.012375 0.000023 0.465321
0.016510 0.000015 0.509461
0.020645 0.000008 0.553602
0.024781 0.000000 0.597742
0.031922 0.000000 0.633879
0.039063 0.000000 0.670016
0.046204 0.000000 0.706153
0.053346 0.000000 0.742290
0.023556 0.040646 0.020485
0.019039 0.036923 0.077592
0.018101 0.030991 0.116827
0.017163 0.025059 0.156062
0.016224 0.019127 0.195296
0.016495 0.003845 0.246586
0.017575 0.002705 0.292268
0.018654 0.001564 0.337949
0.019734 0.000423 0.383631
0.023472 0.000000 0.427890
0.030156 0.000000 0.466793
0.036839 0.000000 0.505695
0.043523 0.000000 0.544598
0.051877 0.000000 0.582685
0.054383 0.000000 0.613470
0.056889 0.000000 0.644255
0.059396 0.000000 0.675040
0.023098 0.043347 0.019806
0.018688 0.042065 0.079267
0.017750 0.036133 0.118502
0.016812 0.030201 0.157736
0.015873 0.024269 0.196971
0.015862 0.005558 0.250549
0.016941 0.004417 0.296231
0.018021 0.003277 0.341913
0.019100 0.002136 0.387595
0.021920 0.000000 0.431865
0.028603 0.000000 0.470768
0.035286 0.000000 0.509670
0.041970 0.000000 0.548573
0.051579 0.000000 0.588273
0.054086 0.000000 0.619058
0.056592 0.000000 0.649843
0.059098 0.000000 0.680628
0.023083 0.044217 0.019345
0.018673 0.042935 0.078805
0.017243 0.036389 0.121244
0.016304 0.030457 0.160479
0.015366 0.024525 0.199714
0.015354 0.005814 0.253292
0.016758 0.004417 0.298184
0.017838 0.003277 0.343866
0.018917 0.002136 0.389548
0.021736 0.000000 0.433818
0.027760 0.000000 0.474384
0.034443 0.000000 0.513287
0.041127 0.000000 0.552190
0.050736 0.000000 0.591890
0.053704 0.000000 0.623636
0.056210 0.000000 0.654421
0.058717 0.000000 0.685206
0.023068 0.045087 0.018883
0.018658 0.043805 0.078344
0.017227 0.037259 0.120783
0.015797 0.030713 0.163222
0.014858 0.024781 0.202457
0.014847 0.006069 0.256035
0.016251 0.004673 0.300927
0.017655 0.003277 0.345819
0.018734 0.002136 0.391501
0.021553 0.000000 0.435771
0.027577 0.000000 0.476337
0.033600 0.000000 0.516904
0.040284 0.000000 0.555806
0.049893 0.000000 0.595506
0.052861 0.000000 0.627252
0.055829 0.000000 0.658999
0.058335 0.000000 0.689784
0.023053 0.045956 0.018421
0.018643 0.044675 0.077882
0.017212 0.038129 0.120321
0.015782 0.031582 0.162760
0.014351 0.025036 0.205199
0.014340 0.006325 0.258778
0.015744 0.004929 0.303670
0.017147 0.003532 0.348562
0.018551 0.002136 0.393454
0.021370 0.000000 0.437724
0.027394 0.000000 0.478290
0.033417 0.000000 0.518857
0.039441 0.000000 0.559423
0.049050 0.000000 0.599123
0.052018 0.000000 0.630869
0.054986 0.000000 0.662615
0.057954 0.000000 0.694361
0.022164 0.049718 0.018002
0.018597 0.050168 0.079591
0.017166 0.043622 0.122030
0.015736 0.037076 0.164469
0.014305 0.030530 0.206908
0.014305 0.010201 0.262901
0.015709 0.008804 0.307793
0.017113 0.007408 0.352685
0.018517 0.006012 0.397577
0.020306 0.000000 0.441607
0.026329 0.000000 0.482174
0.032353 0.000000 0.522740
0.038376 0.000000 0.563306
0.048329 0.000000 0.604166
0.051297 0.000000 0.635912
0.054265 0.000000 0.667659
0.057233 0.000000 0.699405
0.022095 0.051118 0.017342
0.018528 0.051568 0.078931
0.016350 0.044820 0.124613
0.014919 0.038274 0.167052
0.013489 0.031727 0.209491
0.013489 0.011398 0.265484
0.015404 0.008804 0.311375
0.016808 0.007408 0.356267
0.018212 0.006012 0.401159
0.020001 0.000000 0.445189
0.025025 0.000000 0.486701
0.031048 0.000000 0.527268
0.037072 0.000000 0.567834
0.047024 0.000000 0.608694
0.050771 0.000000 0.641474
0.053738 0.000000 0.673221
0.056706 0.000000 0.704967
0.022026 0.052518 0.016682
0.018460 0.052968 0.078271
0.016281 0.046220 0.123953
0.014103 0.039471 0.169634
0.012673 0.032925 0.212074
0.012673 0.012596 0.268066
0.014588 0.010002 0.313958
0.016503 0.007408 0.359849
0.017906 0.006012 0.404741
0.019696 0.000000 0.448771
0.024720 0.000000 0.490283
0.029744 0.000000 0.531796
0.035767 0.000000 0.572362
0.045720 0.000000 0.613222
0.049466 0.000000 0.646002
0.053212 0.000000 0.678783
0.056180 0.000000 0.710529
0.021958 0.053918 0.016022
0.018391 0.054368 0.077611
0.016213 0.047620 0.123293
0.014034 0.040871 0.168974
0.011856 0.034123 0.214656
0.011856 0.013794 0.270649
0.013771 0.011200 0.316540
0.015686 0.008606 0.362432
0.017601 0.006012 0.408323
0.019390 0.000000 0.452353
0.024414 0.000000 0.493865
0.029438 0.000000 0.535378
0.034462 0.000000 0.576890
0.044415 0.000000 0.617750
0.048161 0.000000 0.650530
0.051907 0.000000 0.683311
0.055654 0.000000 0.716091
0.020958 0.058026 0.016022
0.018391 0.060452 0.079187
0.016213 0.053704 0.124868
0.014034 0.046956 0.170550
0.011856 0.040208 0.216231
0.011856 0.021946 0.274334
0.013771 0.019352 0.320226
0.015686 0.016758 0.366117
0.017601 0.014164 0.412008
0.018467 0.000710 0.456302
0.023491 0.000710 0.497814
0.028515 0.000710 0.539326
0.033539 0.000710 0.580839
0.043835 0.000000 0.623217
0.047581 0.000000 0.655997
0.051328 0.000000 0.688777
0.055074 0.000000 0.721557
0.020802 0.060746 0.015034
0.018235 0.063172 0.078199
0.014618 0.056943 0.127764
0.012440 0.050195 0.173445
0.010262 0.043446 0.219127
0.010262 0.025185 0.277229
0.012150 0.019352 0.324456
0.014065 0.016758 0.370348
0.015980 0.014164 0.416239
0.016846 0.000710 0.460532
0.021286 0.000710 0.503425
0.026310 0.000710 0.544938
0.031334 0.000710 0.586450
0.041630 0.000000 0.628828
0.047036 0.000000 0.662909
0.050782 0.000000 0.695689
0.054528 0.000000 0.728469
0.020645 0.063466 0.014046
0.018078 0.065892 0.077211
0.014462 0.059663 0.126776
0.010845 0.053433 0.176341
0.008667 0.046685 0.222023
0.008667 0.028424 0.280125
0.010555 0.022591 0.327352
0.012444 0.016758 0.374579
0.014359 0.014164 0.420470
0.015225 0.000710 0.464763
0.019665 0.000710 0.507656
0.024105 0.000710 0.550549
0.029129 0.000710 0.592062
0.039425 0.000000 0.634440
0.044831 0.000000 0.668521
0.050237 0.000000 0.702601
0.053983 0.000000 0.735382
0.020489 0.066186 0.013058
0.017922 0.068612 0.076223
0.014305 0.062383 0.125788
0.010689 0.056153 0.175353
0.007073 0.049924 0.224918
0.007073 0.031662 0.283020
0.008961 0.025830 0.330247
0.010849 0.019997 0.377474
0.012737 0.014164 0.424701
0.013603 0.000710 0.468994
0.018044 0.000710 0.511887
0.022484 0.000710 0.554780
0.026925 0.000710 0.597673
0.037221 0.000000 0.640051
0.042626 0.000000 0.674132
0.048032 0.000000 0.708213
0.053437 0.000000 0.742294
0.019463 0.070497 0.013058
0.017922 0.075750 0.078599
0.014305 0.069520 0.128164
0.010689 0.063290 0.177729
0.007073 0.057061 0.227295
0.007073 0.041035 0.286526
0.008961 0.035203 0.333753
0.010849 0.029370 0.380980
0.012737 0.023537 0.428207
0.013062 0.001991 0.472465
0.017502 0.001991 0.515358
0.021942 0.001991 0.558251
0.026383 0.001991 0.601144
0.036580 0.000175 0.645281
0.041985 0.000175 0.679362
0.047391 0.000175 0.713443
0.052796 0.000175 0.747524
0.019013 0.074414 0.011330
0.017472 0.079667 0.076871
0.013016 0.074449 0.130606
0.009400 0.068219 0.180171
0.005783 0.061990 0.229736
0.005783 0.045964 0.288968
0.006775 0.035210 0.337903
0.008663 0.029377 0.385130
0.010552 0.023545 0.432357
0.010876 0.001999 0.476616
0.015011 0.001991 0.520756
0.019451 0.001991 0.563649
0.023892 0.001991 0.606542
0.034089 0.000175 0.650679
0.041230 0.000175 0.686816
0.046635 0.000175 0.720897
0.052041 0.000175 0.754978
0.018563 0.078332 0.009602
0.017021 0.083585 0.075143
0.012566 0.078366 0.128878
0.008110 0.073148 0.182612
0.004494 0.066918 0.232177
0.004494 0.050893 0.291409
0.005486 0.040139 0.340345
0.006477 0.029385 0.389281
0.008366 0.023552 0.436508
0.008690 0.002007 0.480766
0.012825 0.001999 0.524907
0.016960 0.001991 0.569047
0.021401 0.001991 0.611940
0.031598 0.000175 0.656077
0.038739 0.000175 0.692214
0.045880 0.000175 0.728351
0.051286 0.000175 0.762432
0.018112 0.082250 0.007874
0.016571 0.087503 0.073415
0.012116 0.082284 0.127150
0.007660 0.077066 0.180884
0.003204 0.071847 0.234619
0.003204 0.055821 0.293851
0.004196 0.045068 0.342786
0.005188 0.034314 0.391722
0.006180 0.023560 0.440658
0.006504 0.002014 0.484917
0.010639 0.002007 0.529057
0.014775 0.001999 0.573198
0.018910 0.001991 0.617338
0.029107 0.000175 0.661475
0.036248 0.000175 0.697612
0.043389 0.000175 0.733749
0.050530 0.000175 0.769886
0.022255 0.053002 0.015122
0.017739 0.049279 0.072229
0.013222 0.045556 0.129335
0.012283 0.039624 0.168570
0.011345 0.033692 0.207805
0.011616 0.018410 0.259095
0.011887 0.003128 0.310384
0.012966 0.001987 0.356066
0.014046 0.000847 0.401747
0.017784 0.000423 0.446006
0.021523 0.000000 0.490265
0.028206 0.000000 0.529168
0.034890 0.000000 0.568070
0.043244 0.000000 0.606157
0.051598 0.000000 0.644243
0.054105 0.000000 0.675029
0.056611 0.000000 0.705814
0.021797 0.055703 0.014443
0.017388 0.054421 0.073903
0.012871 0.050698 0.131010
0.011933 0.044766 0.170245
0.010994 0.038834 0.209480
0.010983 0.020123 0.263058
0.011254 0.004841 0.314348
0.012333 0.003700 0.360029
0.013413 0.002560 0.405711
0.016232 0.000423 0.449981
0.019970 0.000000 0.494240
0.026654 0.000000 0.533143
0.033337 0.000000 0.572045
0.042947 0.000000 0.611745
0.051301 0.000000 0.649832
0.053807 0.000000 0.680617
0.056313 0.000000 0.711402
0.021340 0.058404 0.013764
0.016930 0.057122 0.073224
0.012520 0.055840 0.132685
0.011582 0.049908 0.171920
0.010643 0.043977 0.211154
0.010632 0.025265 0.264733
0.010620 0.006554 0.318311
0.011700 0.005413 0.363993
0.012779 0.004273 0.409674
0.015599 0.002136 0.453945
0.018418 0.000000 0.498215
0.025101 0.000000 0.537118
0.031785 0.000000 0.576020
0.041394 0.000000 0.615721
0.051003 0.000000 0.655420
0.053510 0.000000 0.686206
0.056016 0.000000 0.716990
0.021324 0.059274 0.013302
0.016915 0.057992 0.072763
0.012505 0.056710 0.132223
0.011074 0.050164 0.174662
0.010136 0.044232 0.213897
0.010124 0.025521 0.267475
0.010113 0.006809 0.321054
0.011517 0.005413 0.365946
0.012596 0.004273 0.411628
0.015415 0.002136 0.455898
0.018235 0.000000 0.500168
0.024258 0.000000 0.540734
0.030941 0.000000 0.579637
0.040551 0.000000 0.619337
0.050160 0.000000 0.659037
0.053128 0.000000 0.690783
0.055634 0.000000 0.721568
0.021309 0.060143 0.012840
0.016899 0.058862 0.072301
0.012490 0.057580 0.131762
0.011059 0.051034 0.174201
0.009628 0.044488 0.216640
0.009617 0.025776 0.270218
0.009606 0.007065 0.323797
0.011009 0.005669 0.368688
0.012413 0.004273 0.413580
0.015232 0.002136 0.457851
0.018051 0.000000 0.502121
0.024075 0.000000 0.542687
0.030098 0.000000 0.583254
0.039708 0.000000 0.622954
0.049317 0.000000 0.662654
0.052285 0.000000 0.694400
0.055253 0.000000 0.726146
0.020420 0.063905 0.012421
0.016854 0.064355 0.074010
0.012444 0.063073 0.133471
0.011013 0.056527 0.175910
0.009583 0.049981 0.218349
0.009583 0.029652 0.274342
0.009571 0.010941 0.327920
0.010975 0.009545 0.372812
0.012379 0.008148 0.417704
0.014168 0.002136 0.461734
0.016987 0.000000 0.506004
0.023011 0.000000 0.546570
0.029034 0.000000 0.587137
0.038987 0.000000 0.627997
0.048596 0.000000 0.667697
0.051564 0.000000 0.699443
0.054532 0.000000 0.731189
0.019532 0.067666 0.012001
0.015965 0.068116 0.073590
0.012398 0.068567 0.135180
0.010967 0.062021 0.177619
0.009537 0.055474 0.220058
0.009537 0.035145 0.276051
0.009537 0.014817 0.332044
0.010941 0.013420 0.376936
0.012345 0.012024 0.421828
0.014134 0.006012 0.465858
0.015923 0.000000 0.509888
0.021946 0.000000 0.550454
0.027970 0.000000 0.591020
0.037922 0.000000 0.631880
0.047875 0.000000 0.672740
0.050843 0.000000 0.704486
0.053811 0.000000 0.736233
0.019463 0.069066 0.011341
0.015896 0.069516 0.072930
0.012329 0.069967 0.134520
0.010151 0.063218 0.180201
0.008721 0.056672 0.222640
0.008721 0.036343 0.278634
0.008721 0.016014 0.334626
0.010636 0.013420 0.380518
0.012039 0.012024 0.425410
0.013828 0.006012 0.469440
0.015618 0.000000 0.513470
0.020642 0.000000 0.554982
0.026665 0.000000 0.595548
0.036618 0.000000 0.636408
0.046571 0.000000 0.677268
0.050317 0.000000 0.710048
0.053285 0.000000 0.741794
0.019394 0.070466 0.010681
0.015827 0.070916 0.072271
0.012261 0.071367 0.133860
0.010082 0.064618 0.179541
0.007904 0.057870 0.225223
0.007904 0.037541 0.281216
0.007904 0.017212 0.337209
0.009819 0.014618 0.383100
0.011734 0.012024 0.428992
0.013523 0.006012 0.473022
0.015312 0.000000 0.517052
0.020336 0.000000 0.558564
0.025360 0.000000 0.600076
0.035313 0.000000 0.640936
0.045266 0.000000 0.681796
0.049012 0.000000 0.714576
0.052758 0.000000 0.747357
0.018395 0.074575 0.010681
0.015827 0.077001 0.073846
0.012261 0.077451 0.135435
0.010082 0.070703 0.181117
0.007904 0.063955 0.226799
0.007904 0.045693 0.284901
0.007904 0.025364 0.340894
0.009819 0.022770 0.386786
0.011734 0.020176 0.432677
0.012600 0.006722 0.476970
0.014389 0.000710 0.521000
0.019413 0.000710 0.562512
0.024437 0.000710 0.604025
0.034733 0.000000 0.646403
0.044686 0.000000 0.687263
0.048432 0.000000 0.720043
0.052178 0.000000 0.752823
0.017395 0.078683 0.010681
0.014828 0.081109 0.073846
0.012261 0.083536 0.137011
0.010082 0.076787 0.182692
0.007904 0.070039 0.228374
0.007904 0.051778 0.286476
0.007904 0.033516 0.344579
0.009819 0.030922 0.390471
0.011734 0.028328 0.436362
0.012600 0.014874 0.480655
0.013466 0.001419 0.524948
0.018490 0.001419 0.566461
0.023514 0.001419 0.607973
0.033810 0.000710 0.650351
0.044106 0.000000 0.692729
0.047852 0.000000 0.725509
0.051598 0.000000 0.758290
0.017239 0.081403 0.009693
0.014672 0.083829 0.072858
0.012104 0.086256 0.136023
0.008488 0.080026 0.185588
0.006310 0.073278 0.231269
0.006310 0.055016 0.289372
0.006310 0.036755 0.347475
0.008198 0.030922 0.394701
0.010113 0.028328 0.440593
0.010979 0.014874 0.484886
0.011845 0.001419 0.529179
0.016285 0.001419 0.572072
0.021309 0.001419 0.613585
0.031605 0.000710 0.655963
0.041901 0.000000 0.698341
0.047307 0.000000 0.732422
0.051053 0.000000 0.765202
0.017082 0.084123 0.008705
0.014515 0.086549 0.071870
0.011948 0.088976 0.135035
0.008331 0.082746 0.184600
0.004715 0.076517 0.234165
0.004715 0.058255 0.292268
0.004715 0.039994 0.350370
0.006603 0.034161 0.397597
0.008492 0.028328 0.444824
0.009358 0.014874 0.489117
0.010224 0.001419 0.533410
0.014664 0.001419 0.576303
0.019104 0.001419 0.619196
0.029400 0.000710 0.661574
0.039696 0.000000 0.703952
0.045102 0.000000 0.738033
0.050507 0.000000 0.772114
0.016056 0.088434 0.008705
0.014515 0.093686 0.074247
0.011948 0.096113 0.137411
0.008331 0.089883 0.186976
0.004715 0.083654 0.236542
0.004715 0.067628 0.295773
0.004715 0.049367 0.353876
0.006603 0.043534 0.401103
0.008492 0.037701 0.448329
0.008816 0.016155 0.492588
0.009682 0.002701 0.536881
0.014122 0.002701 0.579774
0.018563 0.002701 0.622667
0.028759 0.000885 0.666804
0.039055 0.000175 0.709182
0.044461 0.000175 0.743263
0.049866 0.000175 0.777344
0.015030 0.092744 0.008705
0.013489 0.097997 0.074247
0.011948 0.103250 0.139788
0.008331 0.097020 0.189353
0.004715 0.090791 0.238918
0.004715 0.074765 0.298150
0.004715 0.058740 0.357382
0.006603 0.052907 0.404608
0.008492 0.047074 0.451835
0.008816 0.025528 0.496094
0.009140 0.003983 0.540353
0.013581 0.003983 0.583246
0.018021 0.003983 0.626139
0.028218 0.002167 0.670275
0.038415 0.000351 0.714412
0.043820 0.000351 0.748493
0.049226 0.000351 0.782574
0.014580 0.096662 0.006977
0.013039 0.101915 0.072518
0.011498 0.107168 0.138060
0.007042 0.101949 0.191794
0.003426 0.095720 0.241360
0.003426 0.079694 0.300591
0.003426 0.063668 0.359823
0.004417 0.052914 0.408759
0.006306 0.047082 0.455986
0.006630 0.025536 0.500244
0.006954 0.003990 0.544503
0.011090 0.003983 0.588643
0.015530 0.003983 0.631536
0.025727 0.002167 0.675673
0.035924 0.000351 0.719810
0.043065 0.000351 0.755947
0.048470 0.000351 0.790028
0.014130 0.100580 0.005249
0.012589 0.105833 0.070790
0.011048 0.111086 0.136332
0.006592 0.105867 0.190066
0.002136 0.100648 0.243801
0.002136 0.084623 0.303033
0.002136 0.068597 0.362265
0.003128 0.057843 0.411200
0.004120 0.047089 0.460136
0.004444 0.025544 0.504395
0.004768 0.003998 0.548653
0.008904 0.003990 0.592794
0.013039 0.003983 0.636935
0.023236 0.002167 0.681071
0.033433 0.000351 0.725208
0.040574 0.000351 0.761345
0.047715 0.000351 0.797482
0.020954 0.065358 0.009758
0.016438 0.061635 0.066865
0.011921 0.057912 0.123972
0.007404 0.054189 0.181079
0.006466 0.048257 0.220314
0.006737 0.032975 0.271603
0.007008 0.017693 0.322892
0.007279 0.002411 0.374182
0.008358 0.001270 0.419864
0.012097 0.000847 0.464122
0.015835 0.000423 0.508381
0.019574 0.000000 0.552640
0.026257 0.000000 0.591543
0.034611 0.000000 0.629629
0.042966 0.000000 0.667716
0.051320 0.000000 0.705802
0.053826 0.000000 0.736587
0.020497 0.068059 0.009079
0.016087 0.066777 0.068540
0.011570 0.063054 0.125647
0.007053 0.059331 0.182753
