user01.cube
TITLE 
LUT_3D_SIZE 9
0.024857 0.028290 0.025849
0.022980 0.016426 0.104318
0.021103 0.004562 0.182788
0.023262 0.002281 0.274152
0.025422 0.000000 0.365515
0.038788 0.000000 0.443320
0.052155 0.000000 0.521126
0.057168 0.000000 0.582696
0.062181 0.000000 0.644266
0.024826 0.030030 0.024926
0.021965 0.016937 0.109804
0.020088 0.005074 0.188273
0.022896 0.002281 0.278057
0.025055 0.000000 0.369421
0.037102 0.000000 0.450554
0.050469 0.000000 0.528359
0.056405 0.000000 0.591851
0.061418 0.000000 0.653422
0.024796 0.031769 0.024002
0.021935 0.018677 0.108881
0.019074 0.005585 0.193759
0.021881 0.002792 0.283543
0.024689 0.000000 0.373327
0.036736 0.000000 0.454459
0.048783 0.000000 0.535592
0.054719 0.000000 0.599084
0.060655 0.000000 0.662577
0.024659 0.034569 0.022682
0.020302 0.021073 0.114046
0.017441 0.007980 0.198924
0.021271 0.002792 0.290707
0.024079 0.000000 0.380491
0.034127 0.000000 0.463516
0.046174 0.000000 0.544648
0.053666 0.000000 0.610209
0.059602 0.000000 0.673701
0.024521 0.037369 0.021363
0.020165 0.023873 0.112726
0.015808 0.010376 0.204089
0.019638 0.005188 0.295872
0.023468 0.000000 0.387655
0.033516 0.000000 0.470680
0.043564 0.000000 0.553704
0.051057 0.000000 0.619264
0.058549 0.000000 0.684825
0.024208 0.042809 0.019387
0.016976 0.030350 0.118517
0.012619 0.016854 0.209880
0.016396 0.005188 0.304334
0.020226 0.000000 0.396116
0.029107 0.000000 0.481902
0.039155 0.000000 0.564927
0.049966 0.000000 0.633089
0.057458 0.000000 0.698650
0.023896 0.048249 0.017410
0.016663 0.035790 0.116541
0.009430 0.023331 0.215671
0.013207 0.011665 0.310125
0.016983 0.000000 0.404578
0.025864 0.000000 0.490364
0.034745 0.000000 0.576150
0.045556 0.000000 0.644312
0.056367 0.000000 0.712474
0.022995 0.056084 0.013954
0.014084 0.045647 0.121424
0.006851 0.033188 0.220554
0.008835 0.011681 0.318426
0.012612 0.000015 0.412879
0.020882 0.000000 0.501160
0.029763 0.000000 0.586946
0.044045 0.000000 0.659220
0.054856 0.000000 0.727382
0.022095 0.063920 0.010498
0.013184 0.053483 0.117968
0.004273 0.043046 0.225437
0.006256 0.021538 0.323308
0.008240 0.000031 0.421180
0.016510 0.000015 0.509461
0.024781 0.000000 0.597742
0.039063 0.000000 0.670016
0.053346 0.000000 0.742290
0.022255 0.053002 0.015122
0.013222 0.045556 0.129335
0.011345 0.033692 0.207805
0.011887 0.003128 0.310384
0.014046 0.000847 0.401747
0.021523 0.000000 0.490265
0.034890 0.000000 0.568070
0.051598 0.000000 0.644243
0.056611 0.000000 0.705814
0.021340 0.058404 0.013764
0.012520 0.055840 0.132685
0.010643 0.043977 0.211154
0.010620 0.006554 0.318311
0.012779 0.004273 0.409674
0.018418 0.000000 0.498215
0.031785 0.000000 0.576020
0.051003 0.000000 0.655420
0.056016 0.000000 0.716990
0.021309 0.060143 0.012840
0.012490 0.057580 0.131762
0.009628 0.044488 0.216640
0.009606 0.007065 0.323797
0.012413 0.004273 0.413580
0.018051 0.000000 0.502121
0.030098 0.000000 0.583254
0.049317 0.000000 0.662654
0.055253 0.000000 0.726146
0.019532 0.067666 0.012001
0.012398 0.068567 0.135180
0.009537 0.055474 0.220058
0.009537 0.014817 0.332044
0.012345 0.012024 0.421828
0.015923 0.000000 0.509888
0.027970 0.000000 0.591020
0.047875 0.000000 0.672740
0.053811 0.000000 0.736233
0.019394 0.070466 0.010681
0.012261 0.071367 0.133860
0.007904 0.057870 0.225223
0.007904 0.017212 0.337209
0.011734 0.012024 0.428992
0.015312 0.000000 0.517052
0.025360 0.000000 0.600076
0.045266 0.000000 0.681796
0.052758 0.000000 0.747357
0.017395 0.078683 0.010681
0.012261 0.083536 0.137011
0.007904 0.070039 0.228374
0.007904 0.033516 0.344579
0.011734 0.028328 0.436362
0.013466 0.001419 0.524948
0.023514 0.001419 0.607973
0.044106 0.000000 0.692729
0.051598 0.000000 0.758290
0.017082 0.084123 0.008705
0.011948 0.088976 0.135035
0.004715 0.076517 0.234165
0.004715 0.039994 0.350370
0.008492 0.028328 0.444824
0.010224 0.001419 0.533410
0.019104 0.001419 0.619196
0.039696 0.000000 0.703952
0.050507 0.000000 0.772114
0.015030 0.092744 0.008705
0.011948 0.103250 0.139788
0.004715 0.090791 0.238918
0.004715 0.058740 0.357382
0.008492 0.047074 0.451835
0.009140 0.003983 0.540353
0.018021 0.003983 0.626139
0.038415 0.000351 0.714412
0.049226 0.000351 0.782574
0.014130 0.100580 0.005249
0.011048 0.111086 0.136332
0.002136 0.100648 0.243801
0.002136 0.068597 0.362265
0.004120 0.047089 0.460136
0.004768 0.003998 0.548653
0.013039 0.003983 0.636935
0.033433 0.000351 0.725208
0.047715 0.000351 0.797482
0.019654 0.077714 0.004395
0.010620 0.070268 0.118608
0.001587 0.062821 0.232822
0.002129 0.032258 0.335401
0.002670 0.001694 0.437980
0.010147 0.000847 0.526497
0.017624 0.000000 0.615015
0.034333 0.000000 0.691188
0.051041 0.000000 0.767361
0.018738 0.083116 0.003037
0.009918 0.080552 0.121958
0.000885 0.073106 0.236171
0.000862 0.035683 0.343328
0.001404 0.005119 0.445907
0.007042 0.000847 0.534447
0.014519 0.000000 0.622965
0.033738 0.000000 0.702365
0.050446 0.000000 0.778538
0.017823 0.088518 0.001678
0.009003 0.085954 0.120600
0.000183 0.083391 0.239521
0.000160 0.045968 0.346677
0.000137 0.008545 0.453834
0.005776 0.004273 0.542374
0.011414 0.000000 0.630915
0.030632 0.000000 0.710315
0.049851 0.000000 0.789715
0.016045 0.096040 0.000839
0.008911 0.096941 0.124018
0.000092 0.094377 0.242939
0.000092 0.053719 0.354925
0.000069 0.016297 0.462081
0.003647 0.004273 0.550141
0.009285 0.000000 0.638682
0.029191 0.000000 0.720402
0.048409 0.000000 0.799801
0.014267 0.103563 0.000000
0.007134 0.104464 0.123178
0.000000 0.105364 0.246357
0.000000 0.064706 0.358343
0.000000 0.024048 0.470329
0.003578 0.012024 0.558388
0.007156 0.000000 0.646448
0.027062 0.000000 0.728168
0.046967 0.000000 0.809888
0.012268 0.111780 0.000000
0.007134 0.116633 0.126329
0.000000 0.117533 0.249508
0.000000 0.081010 0.365713
0.000000 0.040352 0.477699
0.001732 0.013443 0.566285
0.005310 0.001419 0.654345
0.025902 0.000000 0.739101
0.045808 0.000000 0.820821
0.010269 0.119997 0.000000
0.005135 0.124849 0.126329
0.000000 0.129702 0.252659
0.000000 0.093179 0.368864
0.000000 0.056657 0.485069
0.001732 0.029747 0.573655
0.003464 0.002838 0.662242
0.024056 0.001419 0.746998
0.044648 0.000000 0.831754
0.008217 0.128618 0.000000
0.005135 0.139124 0.131083
0.000000 0.143977 0.257412
0.000000 0.111925 0.375876
0.000000 0.075402 0.492081
0.000649 0.032311 0.580598
0.002380 0.005402 0.669185
0.022774 0.001770 0.757458
0.043366 0.000351 0.842214
0.006165 0.137240 0.000000
0.003082 0.147745 0.131083
0.000000 0.158251 0.262165
0.000000 0.126200 0.380629
0.000000 0.094148 0.499092
0.000649 0.051057 0.587610
0.001297 0.007965 0.676127
0.021691 0.004334 0.764400
0.042084 0.000702 0.852674
0.011101 0.116709 0.002197
0.009827 0.132395 0.138224
0.000793 0.124949 0.252438
0.000793 0.096490 0.372198
0.001335 0.065926 0.474777
0.001625 0.024880 0.563287
0.009102 0.024033 0.651804
0.027718 0.001640 0.741879
0.044427 0.001640 0.818051
0.010506 0.126040 0.002197
0.009827 0.145129 0.139841
0.000793 0.137682 0.254055
0.000793 0.113817 0.377630
0.001335 0.083253 0.480209
0.001411 0.046639 0.568948
0.008888 0.045792 0.657465
0.025277 0.002625 0.750027
0.041985 0.002625 0.826200
0.009590 0.131441 0.000839
0.008911 0.150530 0.138483
0.000092 0.147967 0.257405
0.000092 0.124102 0.380979
0.000069 0.086679 0.488136
0.000145 0.050065 0.576875
0.005783 0.045792 0.665416
0.022171 0.002625 0.757977
0.041390 0.002625 0.837377
0.009071 0.140452 0.000839
0.008911 0.161395 0.136500
0.000092 0.158831 0.255421
0.000092 0.139574 0.385115
0.000069 0.102152 0.492272
0.000084 0.070657 0.581231
0.005722 0.066385 0.669772
0.019303 0.018433 0.763669
0.038521 0.018433 0.843068
0.007294 0.147975 0.000000
0.007134 0.168918 0.135660
0.000000 0.169818 0.258839
0.000000 0.150561 0.388533
0.000000 0.109903 0.500519
0.000015 0.078409 0.589479
0.003593 0.066385 0.677539
0.017174 0.018433 0.771435
0.037079 0.018433 0.853155
0.007164 0.157016 0.000000
0.007134 0.180225 0.134485
0.000000 0.181125 0.257664
0.000000 0.164607 0.391593
0.000000 0.123949 0.503578
0.000000 0.096300 0.593462
0.003578 0.084275 0.681521
0.014473 0.036591 0.776761
0.034379 0.036591 0.858481
0.005165 0.165232 0.000000
0.005135 0.188442 0.134485
0.000000 0.193294 0.260815
0.000000 0.176776 0.394744
0.000000 0.140253 0.510948
0.000000 0.112604 0.600832
0.001732 0.085695 0.689418
0.012627 0.038010 0.784657
0.033219 0.036591 0.869413
0.005135 0.174418 0.000000
0.005135 0.199367 0.132273
0.000000 0.204220 0.258602
0.000000 0.190357 0.396727
0.000000 0.153834 0.512932
0.000000 0.128260 0.604249
0.001732 0.101351 0.692836
0.009880 0.056153 0.789685
0.030472 0.054734 0.874441
0.003082 0.183040 0.000000
0.003082 0.207989 0.132273
0.000000 0.218494 0.263355
0.000000 0.204631 0.401480
0.000000 0.172580 0.519944
0.000000 0.147006 0.611261
0.000649 0.103914 0.699778
0.008797 0.058717 0.796628
0.029190 0.055085 0.884901
0.002548 0.155703 0.000000
0.001274 0.171389 0.136027
0.000000 0.187076 0.272053
0.000000 0.158617 0.391813
0.000000 0.130159 0.511574
0.000290 0.089112 0.600084
0.000580 0.048066 0.688594
0.019196 0.025673 0.778668
0.037812 0.003281 0.868742
0.001953 0.165034 0.000000
0.001274 0.184123 0.137644
0.000000 0.199809 0.273670
0.000000 0.175945 0.397245
0.000000 0.147486 0.517006
0.000076 0.110872 0.605745
0.000366 0.069825 0.694255
0.016754 0.026657 0.786816
0.035370 0.004265 0.876890
0.001358 0.174365 0.000000
0.000679 0.193454 0.137644
0.000000 0.212543 0.275288
0.000000 0.188678 0.398863
0.000000 0.164813 0.522438
0.000076 0.128199 0.611177
0.000153 0.091585 0.699916
0.016541 0.048417 0.792477
0.032929 0.005249 0.885039
0.000839 0.183376 0.000000
0.000679 0.204318 0.135660
0.000000 0.223408 0.273304
0.000000 0.204150 0.402999
0.000000 0.180285 0.526574
0.000015 0.148791 0.615533
0.000092 0.112177 0.704273
0.013672 0.064225 0.798169
0.030060 0.021057 0.890731
0.000320 0.192386 0.000000
0.000160 0.213329 0.135660
0.000000 0.234272 0.271321
0.000000 0.215015 0.401015
0.000000 0.195758 0.530709
0.000015 0.164264 0.619669
0.000031 0.132769 0.708629
0.013611 0.084817 0.802526
0.027192 0.036866 0.896422
0.000191 0.201427 0.000000
0.000160 0.224636 0.134485
0.000000 0.245579 0.270146
0.000000 0.229061 0.404074
0.000000 0.209804 0.533769
0.000000 0.182155 0.623652
0.000015 0.150660 0.712611
0.010910 0.102976 0.807851
0.024491 0.055024 0.901748
0.000061 0.210468 0.000000
0.000031 0.233677 0.134485
0.000000 0.256886 0.268971
0.000000 0.240368 0.402900
0.000000 0.223850 0.536828
0.000000 0.196200 0.626711
0.000000 0.168551 0.716594
0.010895 0.120867 0.811834
0.021790 0.073182 0.907073
0.000031 0.219654 0.000000
0.000031 0.244603 0.132273
0.000000 0.267812 0.266759
0.000000 0.253949 0.404883
0.000000 0.237431 0.538812
0.000000 0.211856 0.630129
0.000000 0.184207 0.720012
0.008148 0.139010 0.816861
0.019043 0.091325 0.912101
0.000000 0.228840 0.000000
0.000000 0.253789 0.132273
0.000000 0.278737 0.264546
0.000000 0.264874 0.402671
0.000000 0.251011 0.540795
0.000000 0.225437 0.632113
0.000000 0.199863 0.723430
0.008148 0.154665 0.820279
0.016297 0.109468 0.917128
0.001274 0.202044 0.000000
0.001274 0.228107 0.129427
0.000000 0.243794 0.265454
0.000000 0.232723 0.408332
0.000000 0.204264 0.528092
0.000000 0.180804 0.620882
0.000290 0.139757 0.709392
0.006813 0.101602 0.806950
0.025429 0.079209 0.897025
0.001274 0.212467 0.000000
0.001274 0.238513 0.126086
0.000000 0.254200 0.262112
0.000000 0.247074 0.409728
0.000000 0.218616 0.529488
0.000000 0.196414 0.623834
0.000290 0.155367 0.712345
0.005097 0.126062 0.811185
0.023713 0.103670 0.901259
0.000679 0.221797 0.000000
0.000679 0.247844 0.126086
0.000000 0.266934 0.263730
0.000000 0.259808 0.411345
0.000000 0.235943 0.534920
0.000000 0.213741 0.629267
0.000076 0.177127 0.718006
0.004883 0.147822 0.816846
0.021271 0.104654 0.909407
0.000679 0.232060 0.000000
0.000679 0.257275 0.123690
0.000000 0.276364 0.261333
0.000000 0.273365 0.412436
0.000000 0.249501 0.536011
0.000000 0.228375 0.631776
0.000076 0.191760 0.720515
0.003204 0.166346 0.820112
0.019593 0.123179 0.912673
0.000160 0.241070 0.000000
0.000160 0.266285 0.123690
0.000000 0.287228 0.259350
0.000000 0.284230 0.410452
0.000000 0.264973 0.540146
0.000000 0.243847 0.635912
0.000015 0.212353 0.724872
0.003143 0.186938 0.824468
0.016724 0.138987 0.918365
0.000160 0.251255 0.000000
0.000160 0.274686 0.121225
0.000000 0.295628 0.256886
0.000000 0.296735 0.411246
0.000000 0.277478 0.540940
0.000000 0.257061 0.637698
0.000015 0.225567 0.726658
0.001442 0.203632 0.827482
0.015023 0.155680 0.921378
0.000031 0.260296 0.000000
0.000031 0.283727 0.121225
0.000000 0.306935 0.255711
0.000000 0.308042 0.410071
0.000000 0.291523 0.543999
0.000000 0.271107 0.640757
0.000000 0.243457 0.730640
0.001427 0.221523 0.831464
0.012322 0.173839 0.926704
0.000031 0.270352 0.000000
0.000031 0.292279 0.119120
0.000000 0.315488 0.253605
0.000000 0.319830 0.410743
0.000000 0.303311 0.544671
0.000000 0.283803 0.642192
0.000000 0.256153 0.732074
0.000221 0.237544 0.834294
0.011116 0.189860 0.929534
0.000000 0.279538 0.000000
0.000000 0.301465 0.119120
0.000000 0.326414 0.251393
0.000000 0.330755 0.408530
0.000000 0.316892 0.546655
0.000000 0.297383 0.644175
0.000000 0.271809 0.735492
0.000221 0.253201 0.837713
0.008370 0.208003 0.934561
0.000000 0.248386 0.000000
0.000000 0.274449 0.129427
0.000000 0.300511 0.258854
0.000000 0.289441 0.401732
0.000000 0.278370 0.544610
0.000000 0.254909 0.637400
0.000000 0.231449 0.730190
0.006523 0.193293 0.827748
0.013047 0.155138 0.925307
0.000000 0.258808 0.000000
0.000000 0.284855 0.126086
0.000000 0.310917 0.255513
0.000000 0.303792 0.403128
0.000000 0.292722 0.546006
0.000000 0.270519 0.640352
0.000000 0.247059 0.733142
0.004807 0.217754 0.831983
0.011330 0.179599 0.929541
0.000000 0.269230 0.000000
0.000000 0.295277 0.126086
0.000000 0.321324 0.252171
0.000000 0.314198 0.399787
0.000000 0.307073 0.547402
0.000000 0.284871 0.641749
0.000000 0.262669 0.736095
0.004807 0.233364 0.834936
0.009613 0.204059 0.933776
0.000000 0.279492 0.000000
0.000000 0.304707 0.123690
0.000000 0.330754 0.249775
0.000000 0.327756 0.400877
0.000000 0.320630 0.548493
0.000000 0.299505 0.644258
0.000000 0.277303 0.738605
0.003128 0.251889 0.838201
0.007935 0.222584 0.937042
0.000000 0.289754 0.000000
0.000000 0.314969 0.123690
0.000000 0.340185 0.247379
0.000000 0.337187 0.398481
0.000000 0.334188 0.549584
0.000000 0.313062 0.645350
0.000000 0.291936 0.741115
0.003128 0.266522 0.840711
0.006256 0.241108 0.940307
0.000000 0.299939 0.000000
0.000000 0.323370 0.121225
0.000000 0.348585 0.244915
0.000000 0.349691 0.399275
0.000000 0.346693 0.550377
0.000000 0.326276 0.647135
0.000000 0.305150 0.742900
0.001427 0.283216 0.843724
0.004555 0.257802 0.943321
0.000000 0.310124 0.000000
0.000000 0.333555 0.121225
0.000000 0.356985 0.242451
0.000000 0.358091 0.396811
0.000000 0.359197 0.551171
0.000000 0.338780 0.647928
0.000000 0.318364 0.744686
0.001427 0.296430 0.845510
0.002853 0.274495 0.946334
0.000000 0.320180 0.000000
0.000000 0.342107 0.119120
0.000000 0.365537 0.240345
0.000000 0.369879 0.397483
0.000000 0.370985 0.551843
0.000000 0.351476 0.649363
0.000000 0.331060 0.746121
0.000221 0.312451 0.848341
0.001648 0.290516 0.949165
0.000000 0.330236 0.000000
0.000000 0.352163 0.119120
0.000000 0.374090 0.238239
0.000000 0.378431 0.395377
0.000000 0.382773 0.552514
0.000000 0.363264 0.650035
0.000000 0.343755 0.747555
0.000221 0.325146 0.849775
0.000443 0.306538 0.951995
0.000000 0.299176 0.000000
0.000000 0.320211 0.118578
0.000000 0.346273 0.248005
0.000000 0.352620 0.406157
0.000000 0.341550 0.549035
0.000000 0.323087 0.647143
0.000000 0.299626 0.739933
0.000259 0.283238 0.843336
0.006783 0.245082 0.940894
0.000000 0.308789 0.000000
0.000000 0.329343 0.116373
0.000000 0.355406 0.245800
0.000000 0.362699 0.406470
0.000000 0.351628 0.549348
0.000000 0.334569 0.648379
0.000000 0.311108 0.741169
0.000198 0.297154 0.845594
0.006722 0.258999 0.943152
0.000000 0.319211 0.000000
0.000000 0.339765 0.116373
0.000000 0.365812 0.242459
0.000000 0.373105 0.403129
0.000000 0.365980 0.550744
0.000000 0.348920 0.649775
0.000000 0.326719 0.744121
0.000198 0.312764 0.848547
0.005005 0.283459 0.947387
0.000000 0.329214 0.000000
0.000000 0.348089 0.118357
0.000000 0.374135 0.244442
0.000000 0.383390 0.403121
0.000000 0.376265 0.550736
0.000000 0.359960 0.650286
0.000000 0.337758 0.744632
0.000114 0.325094 0.850324
0.004921 0.295788 0.949165
0.000000 0.339476 0.000000
0.000000 0.358351 0.118357
0.000000 0.383566 0.242046
0.000000 0.392821 0.400725
0.000000 0.389823 0.551827
0.000000 0.373518 0.651377
0.000000 0.352392 0.747142
0.000114 0.339727 0.852834
0.003243 0.314313 0.952430
0.000000 0.349912 0.000000
0.000000 0.366339 0.120386
0.000000 0.391554 0.244076
0.000000 0.402953 0.400008
0.000000 0.399954 0.551110
0.000000 0.384673 0.652063
0.000000 0.363546 0.747829
0.000053 0.352102 0.854573
0.003182 0.326688 0.954170
0.000000 0.360097 0.000000
0.000000 0.376524 0.120386
0.000000 0.399954 0.241611
0.000000 0.411353 0.397544
0.000000 0.412459 0.551903
0.000000 0.397177 0.652857
0.000000 0.376760 0.749614
0.000053 0.365316 0.856359
0.001480 0.343382 0.957183
0.000000 0.370054 0.000000
0.000000 0.384405 0.119356
0.000000 0.407835 0.240581
0.000000 0.420691 0.395385
0.000000 0.421798 0.549744
0.000000 0.407668 0.653170
0.000000 0.387251 0.749928
0.000000 0.377546 0.858030
0.001427 0.355612 0.958854
0.000000 0.380110 0.000000
0.000000 0.394461 0.119356
0.000000 0.416388 0.238476
0.000000 0.429244 0.393279
0.000000 0.433586 0.550416
0.000000 0.419456 0.653841
0.000000 0.399947 0.751362
0.000000 0.390242 0.859465
0.000221 0.371633 0.961684
0.000000 0.349966 0.000000
0.000000 0.371000 0.118578
0.000000 0.392035 0.237156
0.000000 0.398382 0.395308
0.000000 0.404730 0.553460
0.000000 0.386266 0.651568
0.000000 0.367803 0.749676
0.000259 0.351415 0.853078
0.000519 0.335027 0.956481
0.000000 0.359579 0.000000
0.000000 0.380133 0.116373
0.000000 0.401168 0.234951
0.000000 0.408461 0.395621
0.000000 0.414809 0.553773
0.000000 0.397749 0.652804
0.000000 0.379286 0.750912
0.000198 0.365332 0.855337
0.000458 0.348944 0.958740
0.000000 0.369192 0.000000
0.000000 0.389746 0.116373
0.000000 0.410300 0.232746
0.000000 0.417593 0.393416
0.000000 0.424887 0.554086
0.000000 0.407827 0.653117
0.000000 0.390768 0.752148
0.000198 0.376814 0.856573
0.000397 0.362860 0.960998
0.000000 0.379194 0.000000
0.000000 0.398070 0.118357
0.000000 0.418624 0.234729
0.000000 0.427878 0.393408
0.000000 0.435172 0.554078
0.000000 0.418867 0.653628
0.000000 0.401808 0.752659
0.000114 0.389143 0.858351
0.000313 0.375189 0.962775
0.000000 0.389197 0.000000
0.000000 0.408072 0.118357
0.000000 0.426947 0.236713
0.000000 0.436202 0.395391
0.000000 0.445457 0.554070
0.000000 0.429152 0.653620
0.000000 0.412848 0.753170
0.000114 0.400183 0.858862
0.000229 0.387518 0.964553
0.000000 0.399634 0.000000
0.000000 0.416061 0.120386
0.000000 0.434936 0.238743
0.000000 0.446334 0.394675
0.000000 0.455589 0.553353
0.000000 0.440307 0.654307
0.000000 0.424002 0.753857
0.000053 0.412558 0.860601
0.000168 0.399893 0.966293
0.000000 0.410071 0.000000
0.000000 0.426497 0.120386
0.000000 0.442924 0.240772
0.000000 0.454323 0.396704
0.000000 0.465721 0.552636
0.000000 0.450439 0.653589
0.000000 0.435157 0.754543
0.000053 0.423712 0.861287
0.000107 0.412268 0.968032
0.000000 0.420027 0.000000
0.000000 0.434379 0.119356
0.000000 0.450805 0.239742
0.000000 0.463661 0.394545
0.000000 0.475060 0.550477
0.000000 0.460930 0.653903
0.000000 0.445648 0.754856
0.000000 0.435943 0.862958
0.000053 0.424498 0.969703
0.000000 0.429984 0.000000
0.000000 0.444335 0.119356
0.000000 0.458686 0.238712
0.000000 0.471542 0.393515
0.000000 0.484398 0.548318
0.000000 0.470268 0.651744
0.000000 0.456138 0.755169
0.000000 0.446433 0.863271
0.000000 0.436728 0.971374
